%
(TOP PLATE - FIXTURE PLATE)
(MACHINE)
(  VENDOR BRIDGEPORT)
(  MODEL BOSS 6)
(  DESCRIPTION BRIDGEPORT CNC)
(T1  D=0.5 CR=0. - ZMIN=-0.2 - FLAT END MILL)
(T70  D=0.1875 CR=0. TAPER=118DEG - ZMIN=-0.0857 - CENTER DRILL)
(T83  D=0.2031 CR=0. TAPER=118DEG - ZMIN=-0.861 - DRILL)
N10 G90 G94 G17 G91.1
N15 G20
N20 G53 G0 Z0.
(FIXTURE PLATE PECK 3)
N25 T70 M6
N30 T83
N35 S3000 M3
N40 G54
N45 M7
N50 G0 X0. Y0.
N55 G43 Z0.7 H70
N60 G0 Z0.3
N65 G98 G81 X0. Y0. Z-0.0857 R0.2 F4.
N70 X-2.25 Y2.25
N75 X1.2537 Y5.2715
N80 X3.0215 Y3.5037
N85 G80
N90 G0 Z0.7
N95 M5
N100 G53 Z0.
(FIXTURE PLATE BOLT HOLES 3)
N105 M9
N110 M1
N115 T83 M6
N120 T1
N125 S3000 M3
N130 G54
N135 M7
N140 G0 X0. Y0.
N145 G43 Z0.7 H83
N150 G0 Z0.3
N155 Z0.2
N160 Z0.08
N165 G1 Z-0.1 F17.53
N170 G0 Z-0.0959
N175 G1 Z-0.2 F17.53
N180 G0 Z-0.1959
N185 G1 Z-0.3 F17.53
N190 G0 Z-0.2959
N195 G1 Z-0.4 F17.53
N200 G0 Z0.3
N205 Z-0.32
N210 G1 Z-0.5 F17.53
N215 G0 Z-0.4959
N220 G1 Z-0.6 F17.53
N225 G0 Z-0.5959
N230 G1 Z-0.7 F17.53
N235 G0 Z-0.6959
N240 G1 Z-0.8 F17.53
N245 G0 Z0.3
N250 Z-0.72
N255 G1 Z-0.861 F17.53
N260 G0 Z0.3
N265 X-2.25 Y2.25
N270 Z0.2
N275 Z0.08
N280 G1 Z-0.1 F17.53
N285 G0 Z-0.0959
N290 G1 Z-0.2 F17.53
N295 G0 Z-0.1959
N300 G1 Z-0.3 F17.53
N305 G0 Z-0.2959
N310 G1 Z-0.4 F17.53
N315 G0 Z0.3
N320 Z-0.32
N325 G1 Z-0.5 F17.53
N330 G0 Z-0.4959
N335 G1 Z-0.6 F17.53
N340 G0 Z-0.5959
N345 G1 Z-0.7 F17.53
N350 G0 Z-0.6959
N355 G1 Z-0.8 F17.53
N360 G0 Z0.3
N365 Z-0.72
N370 G1 Z-0.861 F17.53
N375 G0 Z0.3
N380 X1.2537 Y5.2715
N385 Z0.2
N390 Z0.08
N395 G1 Z-0.1 F17.53
N400 G0 Z-0.0959
N405 G1 Z-0.2 F17.53
N410 G0 Z-0.1959
N415 G1 Z-0.3 F17.53
N420 G0 Z-0.2959
N425 G1 Z-0.4 F17.53
N430 G0 Z0.3
N435 Z-0.32
N440 G1 Z-0.5 F17.53
N445 G0 Z-0.4959
N450 G1 Z-0.6 F17.53
N455 G0 Z-0.5959
N460 G1 Z-0.7 F17.53
N465 G0 Z-0.6959
N470 G1 Z-0.8 F17.53
N475 G0 Z0.3
N480 Z-0.72
N485 G1 Z-0.861 F17.53
N490 G0 Z0.3
N495 X3.0215 Y3.5037
N500 Z0.2
N505 Z0.08
N510 G1 Z-0.1 F17.53
N515 G0 Z-0.0959
N520 G1 Z-0.2 F17.53
N525 G0 Z-0.1959
N530 G1 Z-0.3 F17.53
N535 G0 Z-0.2959
N540 G1 Z-0.4 F17.53
N545 G0 Z0.3
N550 Z-0.32
N555 G1 Z-0.5 F17.53
N560 G0 Z-0.4959
N565 G1 Z-0.6 F17.53
N570 G0 Z-0.5959
N575 G1 Z-0.7 F17.53
N580 G0 Z-0.6959
N585 G1 Z-0.8 F17.53
N590 G0 Z0.3
N595 Z-0.72
N600 G1 Z-0.861 F17.53
N605 G0 Z0.3
N610 Z0.7
N615 M5
N620 G53 Z0.
(FIXTURE PLATE ORIGIN HOLE 3)
N625 M9
N630 M1
N635 T1 M6
N640 T70
N645 S3000 M3
N650 G54
N655 M7
N660 G0 X0. Y0.
N665 G43 Z0.7 H1
N670 G0 Z0.3
N675 G81 X0. Y0. Z-0.2 R0.2 F19.15
N680 G80
N685 G0 Z0.7
N690 M9
N695 G53 Z0.
N700 M30
%
