%
(TOP PLATE)
(MACHINE)
(  VENDOR BRIDGEPORT)
(  MODEL BOSS 6)
(  DESCRIPTION BRIDGEPORT CNC)
(T4  D=0.625 CR=0. - ZMIN=-0.3 - FLAT END MILL)
(T12  D=0.25 CR=0. - ZMIN=-0.255 - FLAT END MILL)
(T70  D=0.1875 CR=0. TAPER=118DEG - ZMIN=-0.0857 - CENTER DRILL)
(T81  D=0.2187 CR=0. TAPER=118DEG - ZMIN=-0.3357 - DRILL)
(T82  D=0.136 CR=0. TAPER=118DEG - ZMIN=-0.3109 - DRILL)
(T84  D=0.159 CR=0. TAPER=118DEG - ZMIN=-0.3178 - DRILL)
N10 G90 G94 G17 G91.1
N15 G20
N20 G53 G0 Z0.
(DRILL2)
N25 T70 M6
N30 T81
N35 S3000 M3
N40 G54
N45 M7
N50 G0 X2.5831 Y4.8331
N55 G43 Z0.7 H70
N60 G0 Z0.3
N65 G98 G81 X2.5831 Y4.8331 Z-0.0857 R0.2 F5.
N70 X1.9746 Y4.9961
N75 X1.5291 Y4.5507
N80 X1.6921 Y3.9421
N85 X2.3007 Y3.7791
N90 X2.7461 Y4.2246
N95 X1.3909 Y2.4162
N100 X1.1321 Y3.3821
N105 X0.1662 Y3.6409
N110 X-0.5409 Y2.9338
N115 X-1.1789 Y2.4202
N120 X-0.2821 Y1.9679
N125 X0.6838 Y1.7091
N130 X0.1702 Y1.0711
N135 X-0.8422 Y0.7007
N140 X-1.5493 Y1.4078
N145 G80
N150 G0 Z0.7
N155 M5
N160 G53 Z0.
(DRILL4)
N165 M9
N170 M1
N175 T81 M6
N180 T82
N185 S3000 M3
N190 G54
N195 M7
N200 G0 X1.3909 Y2.4162
N205 G43 Z0.8 H81
N210 G0 Z0.4
N215 Z0.05
N220 G1 Z-0.0547 F17.
N225 G0 Z-0.0503
N230 G1 Z-0.1094 F17.
N235 G0 Z-0.105
N240 G1 Z-0.1641 F17.
N245 G0 Z-0.1597
N250 G1 Z-0.2188 F17.
N255 G0 Z-0.2144
N260 G1 Z-0.2734 F17.
N265 G0 Z0.4
N270 Z-0.1934
N275 G1 Z-0.3281 F17.
N280 G0 Z-0.3238
N285 G1 Z-0.3357 F17.
N290 G0 Z0.4
N295 X0.6838 Y1.7091
N300 Z0.05
N305 G1 Z-0.0547 F17.
N310 G0 Z-0.0503
N315 G1 Z-0.1094 F17.
N320 G0 Z-0.105
N325 G1 Z-0.1641 F17.
N330 G0 Z-0.1597
N335 G1 Z-0.2188 F17.
N340 G0 Z-0.2144
N345 G1 Z-0.2734 F17.
N350 G0 Z0.4
N355 Z-0.1934
N360 G1 Z-0.3281 F17.
N365 G0 Z-0.3238
N370 G1 Z-0.3357 F17.
N375 G0 Z0.4
N380 X-0.2821 Y1.9679
N385 Z0.05
N390 G1 Z-0.0547 F17.
N395 G0 Z-0.0503
N400 G1 Z-0.1094 F17.
N405 G0 Z-0.105
N410 G1 Z-0.1641 F17.
N415 G0 Z-0.1597
N420 G1 Z-0.2188 F17.
N425 G0 Z-0.2144
N430 G1 Z-0.2734 F17.
N435 G0 Z0.4
N440 Z-0.1934
N445 G1 Z-0.3281 F17.
N450 G0 Z-0.3238
N455 G1 Z-0.3357 F17.
N460 G0 Z0.4
N465 X-0.5409 Y2.9338
N470 Z0.05
N475 G1 Z-0.0547 F17.
N480 G0 Z-0.0503
N485 G1 Z-0.1094 F17.
N490 G0 Z-0.105
N495 G1 Z-0.1641 F17.
N500 G0 Z-0.1597
N505 G1 Z-0.2188 F17.
N510 G0 Z-0.2144
N515 G1 Z-0.2734 F17.
N520 G0 Z0.4
N525 Z-0.1934
N530 G1 Z-0.3281 F17.
N535 G0 Z-0.3238
N540 G1 Z-0.3357 F17.
N545 G0 Z0.4
N550 X0.1662 Y3.6409
N555 Z0.05
N560 G1 Z-0.0547 F17.
N565 G0 Z-0.0503
N570 G1 Z-0.1094 F17.
N575 G0 Z-0.105
N580 G1 Z-0.1641 F17.
N585 G0 Z-0.1597
N590 G1 Z-0.2188 F17.
N595 G0 Z-0.2144
N600 G1 Z-0.2734 F17.
N605 G0 Z0.4
N610 Z-0.1934
N615 G1 Z-0.3281 F17.
N620 G0 Z-0.3238
N625 G1 Z-0.3357 F17.
N630 G0 Z0.4
N635 X1.1321 Y3.3821
N640 Z0.05
N645 G1 Z-0.0547 F17.
N650 G0 Z-0.0503
N655 G1 Z-0.1094 F17.
N660 G0 Z-0.105
N665 G1 Z-0.1641 F17.
N670 G0 Z-0.1597
N675 G1 Z-0.2188 F17.
N680 G0 Z-0.2144
N685 G1 Z-0.2734 F17.
N690 G0 Z0.4
N695 Z-0.1934
N700 G1 Z-0.3281 F17.
N705 G0 Z-0.3238
N710 G1 Z-0.3357 F17.
N715 G0 Z0.4
N720 Z0.8
N725 M5
N730 G53 Z0.
(DRILL5)
N735 M9
N740 M1
N745 T82 M6
N750 T84
N755 S3000 M3
N760 G54
N765 M7
N770 G0 X1.5291 Y4.5507
N775 G43 Z0.8 H82
N780 G0 Z0.4
N785 Z0.05
N790 G1 Z-0.034 F11.73
N795 G0 Z-0.03
N800 G1 Z-0.068 F11.73
N805 G0 Z-0.064
N810 G1 Z-0.102 F11.73
N815 G0 Z-0.098
N820 G1 Z-0.136 F11.73
N825 G0 Z-0.132
N830 G1 Z-0.17 F11.73
N835 G0 Z0.4
N840 Z-0.09
N845 G1 Z-0.204 F11.73
N850 G0 Z-0.2
N855 G1 Z-0.238 F11.73
N860 G0 Z-0.234
N865 G1 Z-0.272 F11.73
N870 G0 Z-0.268
N875 G1 Z-0.306 F11.73
N880 G0 Z-0.302
N885 G1 Z-0.3109 F11.73
N890 G0 Z0.4
N895 X1.9746 Y4.9961
N900 Z0.05
N905 G1 Z-0.034 F11.73
N910 G0 Z-0.03
N915 G1 Z-0.068 F11.73
N920 G0 Z-0.064
N925 G1 Z-0.102 F11.73
N930 G0 Z-0.098
N935 G1 Z-0.136 F11.73
N940 G0 Z-0.132
N945 G1 Z-0.17 F11.73
N950 G0 Z0.4
N955 Z-0.09
N960 G1 Z-0.204 F11.73
N965 G0 Z-0.2
N970 G1 Z-0.238 F11.73
N975 G0 Z-0.234
N980 G1 Z-0.272 F11.73
N985 G0 Z-0.268
N990 G1 Z-0.306 F11.73
N995 G0 Z-0.302
N1000 G1 Z-0.3109 F11.73
N1005 G0 Z0.4
N1010 X2.5831 Y4.8331
N1015 Z0.05
N1020 G1 Z-0.034 F11.73
N1025 G0 Z-0.03
N1030 G1 Z-0.068 F11.73
N1035 G0 Z-0.064
N1040 G1 Z-0.102 F11.73
N1045 G0 Z-0.098
N1050 G1 Z-0.136 F11.73
N1055 G0 Z-0.132
N1060 G1 Z-0.17 F11.73
N1065 G0 Z0.4
N1070 Z-0.09
N1075 G1 Z-0.204 F11.73
N1080 G0 Z-0.2
N1085 G1 Z-0.238 F11.73
N1090 G0 Z-0.234
N1095 G1 Z-0.272 F11.73
N1100 G0 Z-0.268
N1105 G1 Z-0.306 F11.73
N1110 G0 Z-0.302
N1115 G1 Z-0.3109 F11.73
N1120 G0 Z0.4
N1125 X2.7461 Y4.2246
N1130 Z0.05
N1135 G1 Z-0.034 F11.73
N1140 G0 Z-0.03
N1145 G1 Z-0.068 F11.73
N1150 G0 Z-0.064
N1155 G1 Z-0.102 F11.73
N1160 G0 Z-0.098
N1165 G1 Z-0.136 F11.73
N1170 G0 Z-0.132
N1175 G1 Z-0.17 F11.73
N1180 G0 Z0.4
N1185 Z-0.09
N1190 G1 Z-0.204 F11.73
N1195 G0 Z-0.2
N1200 G1 Z-0.238 F11.73
N1205 G0 Z-0.234
N1210 G1 Z-0.272 F11.73
N1215 G0 Z-0.268
N1220 G1 Z-0.306 F11.73
N1225 G0 Z-0.302
N1230 G1 Z-0.3109 F11.73
N1235 G0 Z0.4
N1240 X2.3007 Y3.7791
N1245 Z0.05
N1250 G1 Z-0.034 F11.73
N1255 G0 Z-0.03
N1260 G1 Z-0.068 F11.73
N1265 G0 Z-0.064
N1270 G1 Z-0.102 F11.73
N1275 G0 Z-0.098
N1280 G1 Z-0.136 F11.73
N1285 G0 Z-0.132
N1290 G1 Z-0.17 F11.73
N1295 G0 Z0.4
N1300 Z-0.09
N1305 G1 Z-0.204 F11.73
N1310 G0 Z-0.2
N1315 G1 Z-0.238 F11.73
N1320 G0 Z-0.234
N1325 G1 Z-0.272 F11.73
N1330 G0 Z-0.268
N1335 G1 Z-0.306 F11.73
N1340 G0 Z-0.302
N1345 G1 Z-0.3109 F11.73
N1350 G0 Z0.4
N1355 X1.6921 Y3.9421
N1360 Z0.05
N1365 G1 Z-0.034 F11.73
N1370 G0 Z-0.03
N1375 G1 Z-0.068 F11.73
N1380 G0 Z-0.064
N1385 G1 Z-0.102 F11.73
N1390 G0 Z-0.098
N1395 G1 Z-0.136 F11.73
N1400 G0 Z-0.132
N1405 G1 Z-0.17 F11.73
N1410 G0 Z0.4
N1415 Z-0.09
N1420 G1 Z-0.204 F11.73
N1425 G0 Z-0.2
N1430 G1 Z-0.238 F11.73
N1435 G0 Z-0.234
N1440 G1 Z-0.272 F11.73
N1445 G0 Z-0.268
N1450 G1 Z-0.306 F11.73
N1455 G0 Z-0.302
N1460 G1 Z-0.3109 F11.73
N1465 G0 Z0.4
N1470 Z0.8
N1475 M5
N1480 G53 Z0.
(DRILL5 2)
N1485 M9
N1490 M1
N1495 T84 M6
N1500 T4
N1505 S3000 M3
N1510 G54
N1515 M7
N1520 G0 X0.1702 Y1.0711
N1525 G43 Z0.8 H84
N1530 G0 Z0.4
N1535 Z0.05
N1540 G1 Z-0.0397 F12.
N1545 G0 Z-0.0357
N1550 G1 Z-0.0795 F12.
N1555 G0 Z-0.0755
N1560 G1 Z-0.1192 F12.
N1565 G0 Z-0.1152
N1570 G1 Z-0.159 F12.
N1575 G0 Z-0.155
N1580 G1 Z-0.1987 F12.
N1585 G0 Z0.4
N1590 Z-0.1187
N1595 G1 Z-0.2385 F12.
N1600 G0 Z-0.2345
N1605 G1 Z-0.2782 F12.
N1610 G0 Z-0.2742
N1615 G1 Z-0.3178 F12.
N1620 G0 Z0.4
N1625 X-0.8422 Y0.7007
N1630 Z0.05
N1635 G1 Z-0.0397 F12.
N1640 G0 Z-0.0357
N1645 G1 Z-0.0795 F12.
N1650 G0 Z-0.0755
N1655 G1 Z-0.1192 F12.
N1660 G0 Z-0.1152
N1665 G1 Z-0.159 F12.
N1670 G0 Z-0.155
N1675 G1 Z-0.1987 F12.
N1680 G0 Z0.4
N1685 Z-0.1187
N1690 G1 Z-0.2385 F12.
N1695 G0 Z-0.2345
N1700 G1 Z-0.2782 F12.
N1705 G0 Z-0.2742
N1710 G1 Z-0.3178 F12.
N1715 G0 Z0.4
N1720 X-1.5493 Y1.4078
N1725 Z0.05
N1730 G1 Z-0.0397 F12.
N1735 G0 Z-0.0357
N1740 G1 Z-0.0795 F12.
N1745 G0 Z-0.0755
N1750 G1 Z-0.1192 F12.
N1755 G0 Z-0.1152
N1760 G1 Z-0.159 F12.
N1765 G0 Z-0.155
N1770 G1 Z-0.1987 F12.
N1775 G0 Z0.4
N1780 Z-0.1187
N1785 G1 Z-0.2385 F12.
N1790 G0 Z-0.2345
N1795 G1 Z-0.2782 F12.
N1800 G0 Z-0.2742
N1805 G1 Z-0.3178 F12.
N1810 G0 Z0.4
N1815 X-1.1789 Y2.4202
N1820 Z0.05
N1825 G1 Z-0.0397 F12.
N1830 G0 Z-0.0357
N1835 G1 Z-0.0795 F12.
N1840 G0 Z-0.0755
N1845 G1 Z-0.1192 F12.
N1850 G0 Z-0.1152
N1855 G1 Z-0.159 F12.
N1860 G0 Z-0.155
N1865 G1 Z-0.1987 F12.
N1870 G0 Z0.4
N1875 Z-0.1187
N1880 G1 Z-0.2385 F12.
N1885 G0 Z-0.2345
N1890 G1 Z-0.2782 F12.
N1895 G0 Z-0.2742
N1900 G1 Z-0.3178 F12.
N1905 G0 Z0.4
N1910 Z0.8
N1915 M5
N1920 G53 Z0.
(2D CONTOUR1)
N1925 M9
N1930 M1
N1935 T4 M6
N1940 T12
N1945 S3000 M3
N1950 G54
N1955 G64 P0.0004 Q0.0004
N1960 M7
N1965 G0 X1.1207 Y6.0679
N1970 G43 Z0.9 H4
N1975 G0 Z0.2
N1980 G1 Z0.1644 F15.
N1985 Z-0.0225
N1990 Y6.0676 Z-0.0286 F50.
N1995 X1.1208 Y6.0667 Z-0.0347
N2000 X1.1209 Y6.0652 Z-0.0406
N2005 X1.1211 Y6.0632 Z-0.0464
N2010 X1.1213 Y6.0605 Z-0.052
N2015 X1.1216 Y6.0574 Z-0.0572
N2020 X1.1219 Y6.0538 Z-0.0621
N2025 X1.1223 Y6.0497 Z-0.0667
N2030 X1.1227 Y6.0451 Z-0.0708
N2035 X1.1231 Y6.0402 Z-0.0745
N2040 X1.1236 Y6.035 Z-0.0776
N2045 X1.1241 Y6.0295 Z-0.0802
N2050 X1.1246 Y6.0237 Z-0.0823
N2055 X1.1251 Y6.0178 Z-0.0838
N2060 X1.1256 Y6.0117 Z-0.0847
N2065 X1.1262 Y6.0056 Z-0.085
N2070 X1.1317 Y5.9434
N2075 G3 X1.1994 Y5.8866 I0.0623 J0.0055
N2080 G2 X1.4793 Y5.8464 I0.0543 J-0.6151
N2085 G1 X2.5458 Y5.4279
N2090 G2 X3.1779 Y4.7958 I-0.4082 J-1.0403
N2095 G1 X3.5963 Y3.7293
N2100 G2 X3.4891 Y3.1005 I-0.5748 J-0.2255
N2105 G1 X0.4676 Y-0.4033
N2110 G2 X-0.4366 Y-0.4366 I-0.4676 J0.4033
N2115 G1 X-2.6866 Y1.8134
N2120 G2 X-2.6533 Y2.7176 I0.4366 J0.4366
N2125 G1 X0.8505 Y5.7391
N2130 G2 X1.1994 Y5.8866 I0.4033 J-0.4676
N2135 G3 X1.2562 Y5.9544 I-0.0055 J0.0623
N2140 G1 X1.2507 Y6.0166
N2145 X1.2501 Y6.0227 Z-0.0847
N2150 X1.2496 Y6.0288 Z-0.0838
N2155 X1.2491 Y6.0347 Z-0.0823
N2160 X1.2486 Y6.0405 Z-0.0802
N2165 X1.2481 Y6.046 Z-0.0776
N2170 X1.2476 Y6.0512 Z-0.0745
N2175 X1.2472 Y6.0561 Z-0.0708
N2180 X1.2468 Y6.0607 Z-0.0667
N2185 X1.2464 Y6.0648 Z-0.0621
N2190 X1.2461 Y6.0684 Z-0.0572
N2195 X1.2458 Y6.0715 Z-0.052
N2200 X1.2456 Y6.0741 Z-0.0464
N2205 X1.2454 Y6.0762 Z-0.0406
N2210 X1.2453 Y6.0777 Z-0.0347
N2215 X1.2452 Y6.0786 Z-0.0286
N2220 Y6.0789 Z-0.0225
N2225 G0 Z0.5
N2230 X1.1207 Y6.0679
N2235 Z0.2
N2240 G1 Z0.0794 F15.
N2245 Z-0.1075
N2250 Y6.0676 Z-0.1136 F50.
N2255 X1.1208 Y6.0667 Z-0.1197
N2260 X1.1209 Y6.0652 Z-0.1256
N2265 X1.1211 Y6.0632 Z-0.1314
N2270 X1.1213 Y6.0605 Z-0.137
N2275 X1.1216 Y6.0574 Z-0.1422
N2280 X1.1219 Y6.0538 Z-0.1471
N2285 X1.1223 Y6.0497 Z-0.1517
N2290 X1.1227 Y6.0451 Z-0.1558
N2295 X1.1231 Y6.0402 Z-0.1595
N2300 X1.1236 Y6.035 Z-0.1626
N2305 X1.1241 Y6.0295 Z-0.1652
N2310 X1.1246 Y6.0237 Z-0.1673
N2315 X1.1251 Y6.0178 Z-0.1688
N2320 X1.1256 Y6.0117 Z-0.1697
N2325 X1.1262 Y6.0056 Z-0.17
N2330 X1.1317 Y5.9434
N2335 G3 X1.1994 Y5.8866 I0.0623 J0.0055
N2340 G2 X1.4793 Y5.8464 I0.0543 J-0.6151
N2345 G1 X2.5458 Y5.4279
N2350 G2 X3.1779 Y4.7958 I-0.4082 J-1.0403
N2355 G1 X3.5963 Y3.7293
N2360 G2 X3.4891 Y3.1005 I-0.5748 J-0.2255
N2365 G1 X0.4676 Y-0.4033
N2370 G2 X-0.4366 Y-0.4366 I-0.4676 J0.4033
N2375 G1 X-2.6866 Y1.8134
N2380 G2 X-2.6533 Y2.7176 I0.4366 J0.4366
N2385 G1 X0.8505 Y5.7391
N2390 G2 X1.1994 Y5.8866 I0.4033 J-0.4676
N2395 G3 X1.2562 Y5.9544 I-0.0055 J0.0623
N2400 G1 X1.2507 Y6.0166
N2405 X1.2501 Y6.0227 Z-0.1697
N2410 X1.2496 Y6.0288 Z-0.1688
N2415 X1.2491 Y6.0347 Z-0.1673
N2420 X1.2486 Y6.0405 Z-0.1652
N2425 X1.2481 Y6.046 Z-0.1626
N2430 X1.2476 Y6.0512 Z-0.1595
N2435 X1.2472 Y6.0561 Z-0.1558
N2440 X1.2468 Y6.0607 Z-0.1517
N2445 X1.2464 Y6.0648 Z-0.1471
N2450 X1.2461 Y6.0684 Z-0.1422
N2455 X1.2458 Y6.0715 Z-0.137
N2460 X1.2456 Y6.0741 Z-0.1314
N2465 X1.2454 Y6.0762 Z-0.1256
N2470 X1.2453 Y6.0777 Z-0.1197
N2475 X1.2452 Y6.0786 Z-0.1136
N2480 Y6.0789 Z-0.1075
N2485 G0 Z0.5
N2490 X1.1207 Y6.0679
N2495 Z0.2
N2500 G1 Z-0.0056 F15.
N2505 Z-0.1925
N2510 Y6.0676 Z-0.1986 F50.
N2515 X1.1208 Y6.0667 Z-0.2047
N2520 X1.1209 Y6.0652 Z-0.2106
N2525 X1.1211 Y6.0632 Z-0.2164
N2530 X1.1213 Y6.0605 Z-0.222
N2535 X1.1216 Y6.0574 Z-0.2272
N2540 X1.1219 Y6.0538 Z-0.2321
N2545 X1.1223 Y6.0497 Z-0.2367
N2550 X1.1227 Y6.0451 Z-0.2408
N2555 X1.1231 Y6.0402 Z-0.2445
N2560 X1.1236 Y6.035 Z-0.2476
N2565 X1.1241 Y6.0295 Z-0.2502
N2570 X1.1246 Y6.0237 Z-0.2523
N2575 X1.1251 Y6.0178 Z-0.2538
N2580 X1.1256 Y6.0117 Z-0.2547
N2585 X1.1262 Y6.0056 Z-0.255
N2590 X1.1317 Y5.9434
N2595 G3 X1.1994 Y5.8866 I0.0623 J0.0055
N2600 G2 X1.4793 Y5.8464 I0.0543 J-0.6151
N2605 G1 X2.5458 Y5.4279
N2610 G2 X3.1779 Y4.7958 I-0.4082 J-1.0403
N2615 G1 X3.5963 Y3.7293
N2620 G2 X3.4891 Y3.1005 I-0.5748 J-0.2255
N2625 G1 X0.4676 Y-0.4033
N2630 G2 X-0.4366 Y-0.4366 I-0.4676 J0.4033
N2635 G1 X-2.6866 Y1.8134
N2640 G2 X-2.6533 Y2.7176 I0.4366 J0.4366
N2645 G1 X0.8505 Y5.7391
N2650 G2 X1.1994 Y5.8866 I0.4033 J-0.4676
N2655 G3 X1.2562 Y5.9544 I-0.0055 J0.0623
N2660 G1 X1.2507 Y6.0166
N2665 X1.2501 Y6.0227 Z-0.2547
N2670 X1.2496 Y6.0288 Z-0.2538
N2675 X1.2491 Y6.0347 Z-0.2523
N2680 X1.2486 Y6.0405 Z-0.2502
N2685 X1.2481 Y6.046 Z-0.2476
N2690 X1.2476 Y6.0512 Z-0.2445
N2695 X1.2472 Y6.0561 Z-0.2408
N2700 X1.2468 Y6.0607 Z-0.2367
N2705 X1.2464 Y6.0648 Z-0.2321
N2710 X1.2461 Y6.0684 Z-0.2272
N2715 X1.2458 Y6.0715 Z-0.222
N2720 X1.2456 Y6.0741 Z-0.2164
N2725 X1.2454 Y6.0762 Z-0.2106
N2730 X1.2453 Y6.0777 Z-0.2047
N2735 X1.2452 Y6.0786 Z-0.1986
N2740 Y6.0789 Z-0.1925
N2745 G0 Z0.9
(2D POCKET1)
N2750 G64 P0.004 Q0.004
N2755 G0 X0.425 Y2.675
N2760 Z0.6
N2765 Z0.2
N2770 G1 Z-0.1 F50.
N2775 G3 X0.3675 I-0.0288 J0.
N2780 X0.4825 I0.0575 J0.
N2785 X0.3675 I-0.0575 J0.
N2790 X0.3962 I0.0144 J0.
N2795 G2 X0.425 I0.0144 J0.
N2800 G1 Z-0.2
N2805 G3 Y2.7038 I0. J0.0144
N2810 X0.4205 Y2.703 I0. J-0.0144
N2815 G1 X0.3773 Y2.6886
N2820 G3 X0.3675 Y2.675 I0.0045 J-0.0136
N2825 X0.4825 I0.0575 J0.
N2830 X0.3675 I-0.0575 J0.
N2835 X0.3962 I0.0144 J0.
N2840 G2 X0.425 I0.0144 J0.
N2845 G1 Z-0.3
N2850 G3 Y2.7038 I0. J0.0144
N2855 X0.4205 Y2.703 I0. J-0.0144
N2860 G1 X0.3773 Y2.6886
N2865 G3 X0.3675 Y2.675 I0.0045 J-0.0136
N2870 X0.4825 I0.0575 J0.
N2875 X0.3675 I-0.0575 J0.
N2880 X0.3689 Y2.6626 Z-0.2987 I0.0575 J0.
N2885 X0.3727 Y2.6512 Z-0.295 I0.0561 J0.0124
N2890 X0.3782 Y2.6416 Z-0.2889 I0.0523 J0.0238
N2895 G1 X0.3811 Y2.6379 Z-0.2848
N2900 X0.3843 Y2.6343 Z-0.2807
N2905 X0.387 Y2.6318 Z-0.276
N2910 X0.3899 Y2.6295 Z-0.2714
N2915 X0.3944 Y2.6263 Z-0.2608
N2920 X0.3973 Y2.6246 Z-0.2494
N2925 X0.3983 Y2.6241 Z-0.2375
N2930 G0 Z0.2
N2935 X-0.4967 Y1.0872
N2940 G1 Z0.1124 F15.
N2945 X-0.4965 Y1.087 Z0.1065 F13.333
N2950 X-0.4959 Y1.0864 Z0.1006
N2955 X-0.4949 Y1.0854 Z0.0948
N2960 X-0.4936 Y1.084 Z0.0892
N2965 X-0.4918 Y1.0822 Z0.0837
N2970 X-0.4897 Y1.0801 Z0.0786
N2975 X-0.4872 Y1.0777 Z0.0737
N2980 X-0.4845 Y1.0749 Z0.0692
N2985 X-0.4814 Y1.0718 Z0.0651
N2990 X-0.4781 Y1.0685 Z0.0614
N2995 X-0.4745 Y1.065 Z0.0582
N3000 X-0.4708 Y1.0612 Z0.0555
N3005 X-0.4669 Y1.0573 Z0.0533
N3010 X-0.4628 Y1.0532 Z0.0516
N3015 X-0.4587 Y1.0491 Z0.0505
N3020 X-0.4545 Y1.0449 Z0.05
N3025 X-0.3712 Y0.9616 Z0.0449
N3030 X-0.3183 Y1.2949 Z0.0303
N3035 G2 X-0.9551 Y1.9317 Z-0.0093 I0.7433 J1.3801
N3040 G1 X-1.2884 Y1.8788 Z-0.0239
N3045 X-0.3712 Y0.9616 Z-0.0801
N3050 X-0.3183 Y1.2949 Z-0.0947
N3055 G2 X-0.4232 Y1.3568 Z-0.1 I0.7433 J1.3801
N3060 X-0.9551 Y1.9317 I0.8482 J1.3182 F50.
N3065 G1 X-1.2884 Y1.8788
N3070 X-0.3712 Y0.9616
N3075 X-0.3183 Y1.2949
N3080 G2 X-0.4232 Y1.3568 I0.7433 J1.3801
N3085 G3 X-0.4393 Y1.3582 I-0.0093 J-0.0145
N3090 G1 X-0.4736 Y1.3435
N3095 G2 X-0.4913 Y1.346 I-0.0068 J0.0159
N3100 G1 X-1.1081 Y1.8497
N3105 X-1.1095 Y1.8511
N3110 X-1.1106 Y1.8527
N3115 X-1.1115 Y1.8544
N3120 X-1.1266 Y1.8956
N3125 G3 X-1.1385 Y1.9026 I-0.0102 J-0.0038
N3130 G1 X-1.2884 Y1.8788 Z-0.108 F13.333
N3135 X-0.3712 Y0.9616 Z-0.1759
N3140 X-0.3183 Y1.2949 Z-0.1936
N3145 G2 X-0.4232 Y1.3568 Z-0.2 I0.7433 J1.3801
N3150 X-0.9551 Y1.9317 I0.8482 J1.3182 F50.
N3155 G1 X-1.2884 Y1.8788
N3160 X-0.3712 Y0.9616
N3165 X-0.3183 Y1.2949
N3170 G2 X-0.4232 Y1.3568 I0.7433 J1.3801
N3175 G3 X-0.4393 Y1.3582 I-0.0093 J-0.0145
N3180 G1 X-0.4736 Y1.3435
N3185 G2 X-0.4913 Y1.346 I-0.0068 J0.0159
N3190 G1 X-1.1081 Y1.8497
N3195 X-1.1095 Y1.8511
N3200 X-1.1106 Y1.8527
N3205 X-1.1115 Y1.8544
N3210 X-1.1266 Y1.8956
N3215 G3 X-1.1385 Y1.9026 I-0.0102 J-0.0038
N3220 G1 X-1.2884 Y1.8788 Z-0.208 F13.333
N3225 X-0.3712 Y0.9616 Z-0.2759
N3230 X-0.3183 Y1.2949 Z-0.2936
N3235 G2 X-0.4232 Y1.3568 Z-0.3 I0.7433 J1.3801
N3240 X-0.9551 Y1.9317 I0.8482 J1.3182 F50.
N3245 G1 X-1.2884 Y1.8788
N3250 X-0.3712 Y0.9616
N3255 X-0.3183 Y1.2949
N3260 G2 X-0.4232 Y1.3568 I0.7433 J1.3801
N3265 G3 X-0.4357 Y1.363 Z-0.2984 I-0.0338 J-0.0526
N3270 X-0.4485 Y1.3662 Z-0.2938 I-0.0214 J-0.0587
N3275 X-0.4603 Y1.3667 Z-0.2864 I-0.0086 J-0.0619
N3280 X-0.4701 Y1.3654 Z-0.2765 I0.0032 J-0.0624
N3285 G1 X-0.4737 Y1.3645 Z-0.2705
N3290 X-0.4772 Y1.3634 Z-0.2646
N3295 X-0.4816 Y1.3618 Z-0.2514
N3300 X-0.483 Y1.3611 Z-0.2375
N3305 G0 Z0.2
N3310 X2.1376 Y4.3876
N3315 G1 Z-0.1 F50.
N3320 G3 X2.096 Y4.4025 I-0.0282 J-0.0134
N3325 G1 X2.0101 Y4.3618
N3330 G3 X1.9953 Y4.3202 I0.0134 J-0.0282
N3335 X2.28 Y4.4551 I0.1423 J0.0675
N3340 X1.9953 Y4.3202 I-0.1423 J-0.0675
N3345 X2.0522 Y4.3211 I0.0282 J0.0134
N3350 G1 X2.0807 Y4.3867
N3355 G2 X2.1376 Y4.3876 I0.0287 J-0.0125
N3360 G1 Z-0.2
N3365 G2 Y4.3251 I0. J-0.0312
N3370 X2.1263 Y4.3272 I0. J0.0313
N3375 G1 X2.0348 Y4.3627
N3380 G3 X1.9953 Y4.3202 I-0.0113 J-0.0291
N3385 X2.28 Y4.4551 I0.1423 J0.0675
N3390 X1.9953 Y4.3202 I-0.1423 J-0.0675
N3395 X2.0522 Y4.3211 I0.0282 J0.0134
N3400 G1 X2.0807 Y4.3867
N3405 G2 X2.1376 Y4.3876 I0.0287 J-0.0125
N3410 G1 Z-0.3
N3415 G2 Y4.3251 I0. J-0.0312
N3420 X2.1263 Y4.3272 I0. J0.0313
N3425 G1 X2.0348 Y4.3627
N3430 G3 X1.9953 Y4.3202 I-0.0113 J-0.0291
N3435 X2.28 Y4.4551 I0.1423 J0.0675
N3440 X1.9953 Y4.3202 I-0.1423 J-0.0675
N3445 X2.0026 Y4.3083 Z-0.2984 I0.0565 J0.0268
N3450 X2.0118 Y4.2989 Z-0.2938 I0.0492 J0.0386
N3455 X2.0215 Y4.2922 Z-0.2864 I0.04 J0.048
N3460 X2.0306 Y4.2881 Z-0.2765 I0.0302 J0.0547
N3465 G1 X2.0341 Y4.287 Z-0.2705
N3470 X2.0377 Y4.286 Z-0.2646
N3475 X2.0422 Y4.2852 Z-0.2514
N3480 X2.0438 Y4.2849 Z-0.2375
N3485 G0 Z0.6
N3490 M5
N3495 G53 Z0.
(ADAPTIVE2)
N3500 M9
N3505 M1
N3510 T12 M6
N3515 T70
N3520 S3000 M3
N3525 G54
N3530 M7
N3535 G0 X-1.6391 Y1.9927
N3540 G43 Z0.7 H12
N3545 G0 Z0.3
N3550 Z0.075
N3555 G1 Z0.05 F15.
N3560 Z-0.1
N3565 X-1.6352 Y1.9901
N3570 X-1.6334 Y1.9925
N3575 Y1.9955
N3580 X-1.6355 Y1.9974
N3585 X-1.6383 Y1.9975
N3590 X-1.6404 Y1.9957
N3595 X-1.6413 Y1.9935
N3600 X-1.6416 Y1.9924
N3605 X-1.6419 Y1.9914
N3610 X-1.6421 Y1.9902
N3615 X-1.6408 Y1.9843
N3620 X-1.6254 Y1.9598
N3625 X-1.6229 Y1.9562
N3630 X-1.6202 Y1.9528
N3635 X-1.6172 Y1.9496
N3640 X-1.6161 Y1.9489
N3645 X-1.6148
N3650 X-1.6137 Y1.9495
N3655 X-1.6129 Y1.9505
N3660 X-1.6127 Y1.9517
N3665 X-1.6131 Y1.953
N3670 X-1.6241 Y1.9708
N3675 X-1.6371 Y1.992
N3680 X-1.6379 Y1.9928
N3685 X-1.6391 Y1.9932
N3690 X-1.6403 Y1.9931
N3695 X-1.6413 Y1.9924
N3700 X-1.6419 Y1.9914
N3705 X-1.6424 Y1.989
N3710 X-1.6426 Y1.9865
N3715 Y1.9842
N3720 X-1.6425 Y1.9829
N3725 X-1.6417 Y1.9786
N3730 X-1.641 Y1.9764
N3735 X-1.6401 Y1.9743
N3740 X-1.639 Y1.9723
N3745 X-1.6377 Y1.9704
N3750 X-1.6341 Y1.9664
N3755 X-1.4376 Y1.7699
N3760 X-1.4353 Y1.7681
N3765 X-1.4328 Y1.7665
N3770 X-1.43 Y1.7655 Z-0.0998
N3775 X-1.4272 Y1.7645 Z-0.0993
N3780 X-1.4245 Y1.7635 Z-0.0984
N3785 X-1.4225 Y1.7634 Z-0.0975
N3790 X-1.4206 Y1.7632 Z-0.0965
N3795 X-1.418 Y1.7637 Z-0.0946
N3800 X-1.4157 Y1.7641 Z-0.0925
N3805 X-1.4136 Y1.7645 Z-0.0901
N3810 X-1.4119 Y1.7648 Z-0.0874
N3815 X-1.4106 Y1.7654 Z-0.0845
N3820 X-1.4096 Y1.7658 Z-0.0814
N3825 X-1.4091 Y1.766 Z-0.0783
N3830 X-1.4089 Y1.7661 Z-0.075
N3835 G0 Z0.3
N3840 X-0.7862 Y2.0004
N3845 Z-0.0688
N3850 G1 Z-0.0938 F15.
N3855 G3 X-0.7981 Y2.0283 Z-0.1 I-0.5924 J-0.2376
N3860 G1 X-0.8352 Y2.1025
N3865 X-0.8396 Y2.111
N3870 X-0.8447 Y2.1196
N3875 X-0.8463 Y2.1214
N3880 X-0.8481 Y2.1232
N3885 X-0.8518 Y2.1261
N3890 X-0.8556 Y2.1281
N3895 X-0.8566 Y2.1285
N3900 X-0.8588 Y2.1292
N3905 X-0.8609 Y2.1297
N3910 X-0.8652 Y2.1302
N3915 X-0.8737 Y2.1295
N3920 X-1.2411 Y2.0711
N3925 X-1.2437 Y2.0705
N3930 X-1.2462 Y2.0697
N3935 X-1.2484 Y2.0686 Z-0.0999
N3940 X-1.2507 Y2.0674 Z-0.0995
N3945 X-1.2529 Y2.0654 Z-0.0986
N3950 X-1.2551 Y2.0634 Z-0.0974
N3955 X-1.2571 Y2.0615 Z-0.0958
N3960 X-1.2583 Y2.0591 Z-0.0937
N3965 X-1.2594 Y2.0569 Z-0.0913
N3970 X-1.2604 Y2.0551 Z-0.0885
N3975 X-1.2611 Y2.0536 Z-0.0855
N3980 X-1.2614 Y2.0524 Z-0.0821
N3985 X-1.2616 Y2.0517 Z-0.0786
N3990 X-1.2617 Y2.0514 Z-0.075
N3995 G0 Z0.3
N4000 X-0.7862 Y2.0004
N4005 Z-0.1688
N4010 G1 Z-0.1938 F15.
N4015 G3 X-0.7981 Y2.0283 Z-0.2 I-0.5924 J-0.2376
N4020 G1 X-0.8352 Y2.1025
N4025 X-0.8396 Y2.111
N4030 X-0.8447 Y2.1196
N4035 X-0.8463 Y2.1214
N4040 X-0.8481 Y2.1232
N4045 X-0.8518 Y2.1261
N4050 X-0.8556 Y2.1281
N4055 X-0.8566 Y2.1285
N4060 X-0.8588 Y2.1292
N4065 X-0.8609 Y2.1297
N4070 X-0.8652 Y2.1302
N4075 X-0.8737 Y2.1295
N4080 X-1.2411 Y2.0711
N4085 X-1.2437 Y2.0705
N4090 X-1.2462 Y2.0697
N4095 X-1.2484 Y2.0686 Z-0.1999
N4100 X-1.2507 Y2.0674 Z-0.1995
N4105 X-1.2529 Y2.0654 Z-0.1986
N4110 X-1.2551 Y2.0634 Z-0.1974
N4115 X-1.2571 Y2.0615 Z-0.1958
N4120 X-1.2583 Y2.0591 Z-0.1937
N4125 X-1.2594 Y2.0569 Z-0.1913
N4130 X-1.2604 Y2.0551 Z-0.1885
N4135 X-1.2611 Y2.0536 Z-0.1855
N4140 X-1.2614 Y2.0524 Z-0.1821
N4145 X-1.2616 Y2.0517 Z-0.1786
N4150 X-1.2617 Y2.0514 Z-0.175
N4155 G0 Z0.3
N4160 X-0.7862 Y2.0004
N4165 Z-0.2238
N4170 G1 Z-0.2488 F15.
N4175 G3 X-0.7981 Y2.0283 Z-0.255 I-0.5924 J-0.2376
N4180 G1 X-0.8352 Y2.1025
N4185 X-0.8396 Y2.111
N4190 X-0.8447 Y2.1196
N4195 X-0.8463 Y2.1214
N4200 X-0.8481 Y2.1232
N4205 X-0.8518 Y2.1261
N4210 X-0.8556 Y2.1281
N4215 X-0.8566 Y2.1285
N4220 X-0.8588 Y2.1292
N4225 X-0.8609 Y2.1297
N4230 X-0.8652 Y2.1302
N4235 X-0.8737 Y2.1295
N4240 X-1.2411 Y2.0711
N4245 X-1.2437 Y2.0705
N4250 X-1.2462 Y2.0697
N4255 X-1.2484 Y2.0686 Z-0.2549
N4260 X-1.2507 Y2.0674 Z-0.2545
N4265 X-1.2529 Y2.0654 Z-0.2536
N4270 X-1.2551 Y2.0634 Z-0.2524
N4275 X-1.2571 Y2.0615 Z-0.2508
N4280 X-1.2583 Y2.0591 Z-0.2487
N4285 X-1.2594 Y2.0569 Z-0.2463
N4290 X-1.2604 Y2.0551 Z-0.2435
N4295 X-1.2611 Y2.0536 Z-0.2405
N4300 X-1.2614 Y2.0524 Z-0.2371
N4305 X-1.2616 Y2.0517 Z-0.2336
N4310 X-1.2617 Y2.0514 Z-0.23
N4315 G0 Z0.3
N4320 X-1.2622 Y2.0659
N4325 Z-0.0688
N4330 G1 Z-0.0938 F15.
N4335 G3 X-1.2924 Y2.0629 Z-0.1 I0.0479 J-0.6364
N4340 G1 X-1.6213 Y2.0107
N4345 X-1.6234 Y2.0102
N4350 X-1.6256 Y2.0096
N4355 X-1.6282 Y2.0085
N4360 X-1.6312 Y2.0068
N4365 X-1.6341 Y2.0045
N4370 X-1.6363 Y2.0022
N4375 X-1.638 Y1.9999
N4380 X-1.6404 Y1.9957
N4385 X-1.6413 Y1.9928
N4390 X-1.6418 Y1.9899
N4395 X-1.6419 Y1.9872 Z-0.0999
N4400 X-1.6414 Y1.9843 Z-0.0993
N4405 X-1.6409 Y1.9814 Z-0.0984
N4410 X-1.6404 Y1.9786 Z-0.0972
N4415 X-1.6387 Y1.9757 Z-0.0951
N4420 X-1.6372 Y1.9732 Z-0.0925
N4425 X-1.6359 Y1.971 Z-0.0895
N4430 X-1.6345 Y1.9696 Z-0.0862
N4435 X-1.6334 Y1.9686 Z-0.0826
N4440 X-1.6328 Y1.968 Z-0.0789
N4445 X-1.6326 Y1.9678 Z-0.075
N4450 G0 Z0.3
N4455 X-1.6391 Y1.9927
N4460 Z-0.025
N4465 G1 Z-0.05 F15.
N4470 Z-0.2
N4475 X-1.6352 Y1.9901
N4480 X-1.6334 Y1.9925
N4485 Y1.9955
N4490 X-1.6355 Y1.9974
N4495 X-1.6383 Y1.9975
N4500 X-1.6404 Y1.9957
N4505 X-1.6413 Y1.9935
N4510 X-1.6416 Y1.9924
N4515 X-1.6419 Y1.9914
N4520 X-1.6421 Y1.9902
N4525 X-1.6408 Y1.9843
N4530 X-1.6254 Y1.9598
N4535 X-1.6229 Y1.9562
N4540 X-1.6202 Y1.9528
N4545 X-1.6172 Y1.9496
N4550 X-1.6161 Y1.9489
N4555 X-1.6148
N4560 X-1.6137 Y1.9495
N4565 X-1.6129 Y1.9505
N4570 X-1.6127 Y1.9517
N4575 X-1.6131 Y1.953
N4580 X-1.6241 Y1.9708
N4585 X-1.6371 Y1.992
N4590 X-1.6379 Y1.9928
N4595 X-1.6391 Y1.9932
N4600 X-1.6403 Y1.9931
N4605 X-1.6413 Y1.9924
N4610 X-1.6419 Y1.9914
N4615 X-1.6424 Y1.989
N4620 X-1.6426 Y1.9865
N4625 Y1.9842
N4630 X-1.6425 Y1.9829
N4635 X-1.6417 Y1.9786
N4640 X-1.641 Y1.9764
N4645 X-1.6401 Y1.9743
N4650 X-1.639 Y1.9723
N4655 X-1.6377 Y1.9704
N4660 X-1.6341 Y1.9664
N4665 X-1.4376 Y1.7699
N4670 X-1.4353 Y1.7681
N4675 X-1.4328 Y1.7665
N4680 X-1.43 Y1.7655 Z-0.1998
N4685 X-1.4272 Y1.7645 Z-0.1993
N4690 X-1.4245 Y1.7635 Z-0.1984
N4695 X-1.4225 Y1.7634 Z-0.1975
N4700 X-1.4206 Y1.7632 Z-0.1965
N4705 X-1.418 Y1.7637 Z-0.1946
N4710 X-1.4157 Y1.7641 Z-0.1925
N4715 X-1.4136 Y1.7645 Z-0.1901
N4720 X-1.4119 Y1.7648 Z-0.1874
N4725 X-1.4106 Y1.7654 Z-0.1845
N4730 X-1.4096 Y1.7658 Z-0.1814
N4735 X-1.4091 Y1.766 Z-0.1783
N4740 X-1.4089 Y1.7661 Z-0.175
N4745 G0 Z0.3
N4750 X-1.2622 Y2.0659
N4755 Z-0.1688
N4760 G1 Z-0.1938 F15.
N4765 G3 X-1.2924 Y2.0629 Z-0.2 I0.0479 J-0.6364
N4770 G1 X-1.6213 Y2.0107
N4775 X-1.6234 Y2.0102
N4780 X-1.6256 Y2.0096
N4785 X-1.6282 Y2.0085
N4790 X-1.6312 Y2.0068
N4795 X-1.6341 Y2.0045
N4800 X-1.6363 Y2.0022
N4805 X-1.638 Y1.9999
N4810 X-1.6404 Y1.9957
N4815 X-1.6413 Y1.9928
N4820 X-1.6418 Y1.9899
N4825 X-1.6419 Y1.9872 Z-0.1999
N4830 X-1.6414 Y1.9843 Z-0.1993
N4835 X-1.6409 Y1.9814 Z-0.1984
N4840 X-1.6404 Y1.9786 Z-0.1972
N4845 X-1.6387 Y1.9757 Z-0.1951
N4850 X-1.6372 Y1.9732 Z-0.1925
N4855 X-1.6359 Y1.971 Z-0.1895
N4860 X-1.6345 Y1.9696 Z-0.1862
N4865 X-1.6334 Y1.9686 Z-0.1826
N4870 X-1.6328 Y1.968 Z-0.1789
N4875 X-1.6326 Y1.9678 Z-0.175
N4880 G0 Z0.3
N4885 X-1.6391 Y1.9927
N4890 Z-0.125
N4895 G1 Z-0.15 F15.
N4900 Z-0.255
N4905 X-1.6352 Y1.9901
N4910 X-1.6334 Y1.9925
N4915 Y1.9955
N4920 X-1.6355 Y1.9974
N4925 X-1.6383 Y1.9975
N4930 X-1.6404 Y1.9957
N4935 X-1.6413 Y1.9935
N4940 X-1.6416 Y1.9924
N4945 X-1.6419 Y1.9914
N4950 X-1.6421 Y1.9902
N4955 X-1.6408 Y1.9843
N4960 X-1.6254 Y1.9598
N4965 X-1.6229 Y1.9562
N4970 X-1.6202 Y1.9528
N4975 X-1.6172 Y1.9496
N4980 X-1.6161 Y1.9489
N4985 X-1.6148
N4990 X-1.6137 Y1.9495
N4995 X-1.6129 Y1.9505
N5000 X-1.6127 Y1.9517
N5005 X-1.6131 Y1.953
N5010 X-1.6241 Y1.9708
N5015 X-1.6371 Y1.992
N5020 X-1.6379 Y1.9928
N5025 X-1.6391 Y1.9932
N5030 X-1.6403 Y1.9931
N5035 X-1.6413 Y1.9924
N5040 X-1.6419 Y1.9914
N5045 X-1.6424 Y1.989
N5050 X-1.6426 Y1.9865
N5055 Y1.9842
N5060 X-1.6425 Y1.9829
N5065 X-1.6417 Y1.9786
N5070 X-1.641 Y1.9764
N5075 X-1.6401 Y1.9743
N5080 X-1.639 Y1.9723
N5085 X-1.6377 Y1.9704
N5090 X-1.6341 Y1.9664
N5095 X-1.4376 Y1.7699
N5100 X-1.4353 Y1.7681
N5105 X-1.4328 Y1.7665
N5110 X-1.43 Y1.7655 Z-0.2548
N5115 X-1.4272 Y1.7645 Z-0.2543
N5120 X-1.4245 Y1.7635 Z-0.2534
N5125 X-1.4225 Y1.7634 Z-0.2525
N5130 X-1.4206 Y1.7632 Z-0.2515
N5135 X-1.418 Y1.7637 Z-0.2496
N5140 X-1.4157 Y1.7641 Z-0.2475
N5145 X-1.4136 Y1.7645 Z-0.2451
N5150 X-1.4119 Y1.7648 Z-0.2424
N5155 X-1.4106 Y1.7654 Z-0.2395
N5160 X-1.4096 Y1.7658 Z-0.2364
N5165 X-1.4091 Y1.766 Z-0.2333
N5170 X-1.4089 Y1.7661 Z-0.23
N5175 G0 Z0.3
N5180 X-1.2622 Y2.0659
N5185 Z-0.2238
N5190 G1 Z-0.2488 F15.
N5195 G3 X-1.2924 Y2.0629 Z-0.255 I0.0479 J-0.6364
N5200 G1 X-1.6213 Y2.0107
N5205 X-1.6234 Y2.0102
N5210 X-1.6256 Y2.0096
N5215 X-1.6282 Y2.0085
N5220 X-1.6312 Y2.0068
N5225 X-1.6341 Y2.0045
N5230 X-1.6363 Y2.0022
N5235 X-1.638 Y1.9999
N5240 X-1.6404 Y1.9957
N5245 X-1.6413 Y1.9928
N5250 X-1.6418 Y1.9899
N5255 X-1.6419 Y1.9872 Z-0.2549
N5260 X-1.6414 Y1.9843 Z-0.2543
N5265 X-1.6409 Y1.9814 Z-0.2534
N5270 X-1.6404 Y1.9786 Z-0.2522
N5275 X-1.6387 Y1.9757 Z-0.2501
N5280 X-1.6372 Y1.9732 Z-0.2475
N5285 X-1.6359 Y1.971 Z-0.2445
N5290 X-1.6345 Y1.9696 Z-0.2412
N5295 X-1.6334 Y1.9686 Z-0.2376
N5300 X-1.6328 Y1.968 Z-0.2339
N5305 X-1.6326 Y1.9678 Z-0.23
N5310 G0 Z0.3
N5315 X-0.591 Y0.9598
N5320 Z-0.05
N5325 G1 Z-0.075 F15.
N5330 X-0.5908 Y0.9595 Z-0.0789
N5335 X-0.5903 Y0.9587 Z-0.0827
N5340 X-0.5896 Y0.9574 Z-0.0863
N5345 X-0.5885 Y0.9557 Z-0.0897
N5350 X-0.5872 Y0.9535 Z-0.0927
N5355 X-0.5857 Y0.9509 Z-0.0952
N5360 X-0.584 Y0.948 Z-0.0973
N5365 X-0.5822 Y0.9449 Z-0.0988
N5370 X-0.5802 Y0.9416 Z-0.0997
N5375 X-0.5782 Y0.9383 Z-0.1
N5380 G3 X-0.4958 Y0.8282 I0.5492 J0.3252
N5385 G1 X-0.4245 Y0.7568
N5390 X-0.4192 Y0.7521
N5395 X-0.4136 Y0.7477
N5400 X-0.4063 Y0.743
N5405 X-0.3971 Y0.738
N5410 X-0.3855 Y0.7329
N5415 X-0.3709 Y0.7279
N5420 X-0.3611 Y0.7253
N5425 X-0.3523 Y0.7238
N5430 X-0.3417 Y0.7228
N5435 X-0.3287 Y0.7227
N5440 X-0.3128 Y0.7237
N5445 X-0.2934 Y0.7266
N5450 X-0.2741 Y0.7311
N5455 X-0.2636 Y0.7345
N5460 X-0.2512 Y0.7396
N5465 X-0.2456 Y0.7424
N5470 X-0.2364 Y0.7483
N5475 X-0.2283 Y0.7558
N5480 X-0.2219 Y0.7647
N5485 X-0.2172 Y0.7746
N5490 X-0.2144 Y0.7853
N5495 X-0.1843 Y0.9747
N5500 G3 X-0.2061 Y1.0026 Z-0.092 I-0.0248 J0.0031
N5505 X-0.2271 Y0.9952 I-0.0031 J-0.0248
N5510 G1 X-0.4233 Y0.7922
N5515 X-0.4242 Y0.7912 Z-0.0923
N5520 G3 X-0.4245 Y0.7568 Z-0.1 I0.018 J-0.0174
N5525 G1 X-0.3697 Y0.702
N5530 X-0.3635 Y0.6965
N5535 X-0.3574 Y0.6918
N5540 X-0.3507 Y0.6874
N5545 X-0.3424 Y0.6829
N5550 X-0.3335 Y0.679
N5555 X-0.3238 Y0.6757
N5560 X-0.3129 Y0.6728
N5565 X-0.3018 Y0.6709
N5570 X-0.2906 Y0.6699
N5575 X-0.2792 Y0.6697
N5580 X-0.2786 Y0.6698
N5585 X-0.2658 Y0.6721
N5590 X-0.2538 Y0.6772
N5595 X-0.2432 Y0.6849
N5600 X-0.2347 Y0.6947
N5605 X-0.2285 Y0.7062
N5610 X-0.225 Y0.7188
N5615 G3 X-0.2467 Y0.7467 Z-0.092 I-0.0248 J0.0031
N5620 G1 X-0.2505 Y0.7469
N5625 X-0.3521 Y0.744
N5630 G3 X-0.3684 Y0.7373 I0.0007 J-0.025
N5635 X-0.3697 Y0.702 Z-0.1 I0.0171 J-0.0183
N5640 G1 X-0.3184 Y0.6507
N5645 X-0.3135 Y0.6463
N5650 X-0.3087 Y0.6426
N5655 X-0.3036 Y0.6395
N5660 X-0.3032 Y0.6392
N5665 X-0.2923 Y0.6352
N5670 X-0.2807 Y0.6339
N5675 X-0.2692 Y0.6353
N5680 X-0.2583 Y0.6393
N5685 X-0.2486 Y0.6458
N5690 X-0.2407 Y0.6544
N5695 X-0.235 Y0.6645
N5700 X-0.2318 Y0.6757
N5705 G3 X-0.2536 Y0.7036 Z-0.092 I-0.0248 J0.0031
N5710 G1 X-0.2567 Y0.7038
N5715 X-0.2597 Y0.7036
N5720 X-0.2628 Y0.703
N5725 X-0.3062 Y0.692
N5730 G3 X-0.3172 Y0.6861 I0.0061 J-0.0242
N5735 X-0.3184 Y0.6507 Z-0.1 I0.0171 J-0.0183
N5740 G1 X-0.2897 Y0.6221
N5745 X-0.2853 Y0.618
N5750 X-0.2772 Y0.6144
N5755 X-0.2685 Y0.6132
N5760 X-0.2598 Y0.6144
N5765 X-0.2517 Y0.6181
N5770 X-0.245 Y0.6238
N5775 X-0.2402 Y0.6312
N5780 X-0.2376 Y0.6396
N5785 G3 X-0.2468 Y0.6649 I-0.0295 J0.0036
N5790 X-0.2897 Y0.6221 I-0.0207 J-0.0222
N5795 G1 X-0.2836 Y0.6159
N5800 X-0.2796 Y0.6123
N5805 X-0.2777 Y0.611
N5810 X-0.2757 Y0.6099
N5815 X-0.2736 Y0.609
N5820 X-0.2714 Y0.6083
N5825 X-0.2671 Y0.6075
N5830 X-0.2658 Y0.6074
N5835 X-0.2635
N5840 X-0.261 Y0.6076
N5845 X-0.2586 Y0.6081
N5850 X-0.2565 Y0.6087
N5855 X-0.2543 Y0.6096
N5860 X-0.2501 Y0.612
N5865 X-0.2478 Y0.6137
N5870 X-0.2455 Y0.6159
N5875 X-0.2432 Y0.6188
N5880 X-0.2415 Y0.6218
N5885 X-0.2404 Y0.6244
N5890 X-0.2398 Y0.6266
N5895 X-0.2393 Y0.6287
N5900 X-0.2144 Y0.7853
N5905 X-0.2143 Y0.7882
N5910 X-0.2144 Y0.7912
N5915 X-0.2153 Y0.794 Z-0.0998
N5920 X-0.2161 Y0.7968 Z-0.0993
N5925 X-0.2169 Y0.7996 Z-0.0984
N5930 X-0.2189 Y0.8021 Z-0.0969
N5935 X-0.2206 Y0.8045 Z-0.095
N5940 X-0.2222 Y0.8066 Z-0.0927
N5945 X-0.2243 Y0.808 Z-0.0897
N5950 X-0.226 Y0.8092 Z-0.0864
N5955 X-0.2272 Y0.8101 Z-0.0827
N5960 X-0.228 Y0.8106 Z-0.0789
N5965 X-0.2282 Y0.8107 Z-0.075
N5970 G0 Z0.3
N5975 X-0.591 Y0.9598
N5980 Z-0.15
N5985 G1 Z-0.175 F15.
N5990 X-0.5908 Y0.9595 Z-0.1789
N5995 X-0.5903 Y0.9587 Z-0.1827
N6000 X-0.5896 Y0.9574 Z-0.1863
N6005 X-0.5885 Y0.9557 Z-0.1897
N6010 X-0.5872 Y0.9535 Z-0.1927
N6015 X-0.5857 Y0.9509 Z-0.1952
N6020 X-0.584 Y0.948 Z-0.1973
N6025 X-0.5822 Y0.9449 Z-0.1988
N6030 X-0.5802 Y0.9416 Z-0.1997
N6035 X-0.5782 Y0.9383 Z-0.2
N6040 G3 X-0.4958 Y0.8282 I0.5492 J0.3252
N6045 G1 X-0.4245 Y0.7568
N6050 X-0.4192 Y0.7521
N6055 X-0.4136 Y0.7477
N6060 X-0.4063 Y0.743
N6065 X-0.3971 Y0.738
N6070 X-0.3855 Y0.7329
N6075 X-0.3709 Y0.7279
N6080 X-0.3611 Y0.7253
N6085 X-0.3523 Y0.7238
N6090 X-0.3417 Y0.7228
N6095 X-0.3287 Y0.7227
N6100 X-0.3128 Y0.7237
N6105 X-0.2934 Y0.7266
N6110 X-0.2741 Y0.7311
N6115 X-0.2636 Y0.7345
N6120 X-0.2512 Y0.7396
N6125 X-0.2456 Y0.7424
N6130 X-0.2364 Y0.7483
N6135 X-0.2283 Y0.7558
N6140 X-0.2219 Y0.7647
N6145 X-0.2172 Y0.7746
N6150 X-0.2144 Y0.7853
N6155 X-0.1843 Y0.9747
N6160 G3 X-0.2061 Y1.0026 Z-0.192 I-0.0248 J0.0031
N6165 X-0.2271 Y0.9952 I-0.0031 J-0.0248
N6170 G1 X-0.4233 Y0.7922
N6175 X-0.4242 Y0.7912 Z-0.1923
N6180 G3 X-0.4245 Y0.7568 Z-0.2 I0.018 J-0.0174
N6185 G1 X-0.3697 Y0.702
N6190 X-0.3635 Y0.6965
N6195 X-0.3574 Y0.6918
N6200 X-0.3507 Y0.6874
N6205 X-0.3424 Y0.6829
N6210 X-0.3335 Y0.679
N6215 X-0.3238 Y0.6757
N6220 X-0.3129 Y0.6728
N6225 X-0.3018 Y0.6709
N6230 X-0.2906 Y0.6699
N6235 X-0.2792 Y0.6697
N6240 X-0.2786 Y0.6698
N6245 X-0.2658 Y0.6721
N6250 X-0.2538 Y0.6772
N6255 X-0.2432 Y0.6849
N6260 X-0.2347 Y0.6947
N6265 X-0.2285 Y0.7062
N6270 X-0.225 Y0.7188
N6275 G3 X-0.2467 Y0.7467 Z-0.192 I-0.0248 J0.0031
N6280 G1 X-0.2505 Y0.7469
N6285 X-0.3521 Y0.744
N6290 G3 X-0.3684 Y0.7373 I0.0007 J-0.025
N6295 X-0.3697 Y0.702 Z-0.2 I0.0171 J-0.0183
N6300 G1 X-0.3184 Y0.6507
N6305 X-0.3135 Y0.6463
N6310 X-0.3087 Y0.6426
N6315 X-0.3036 Y0.6395
N6320 X-0.3032 Y0.6392
N6325 X-0.2923 Y0.6352
N6330 X-0.2807 Y0.6339
N6335 X-0.2692 Y0.6353
N6340 X-0.2583 Y0.6393
N6345 X-0.2486 Y0.6458
N6350 X-0.2407 Y0.6544
N6355 X-0.235 Y0.6645
N6360 X-0.2318 Y0.6757
N6365 G3 X-0.2536 Y0.7036 Z-0.192 I-0.0248 J0.0031
N6370 G1 X-0.2567 Y0.7038
N6375 X-0.2597 Y0.7036
N6380 X-0.2628 Y0.703
N6385 X-0.3062 Y0.692
N6390 G3 X-0.3172 Y0.6861 I0.0061 J-0.0242
N6395 X-0.3184 Y0.6507 Z-0.2 I0.0171 J-0.0183
N6400 G1 X-0.2897 Y0.6221
N6405 X-0.2853 Y0.618
N6410 X-0.2772 Y0.6144
N6415 X-0.2685 Y0.6132
N6420 X-0.2598 Y0.6144
N6425 X-0.2517 Y0.6181
N6430 X-0.245 Y0.6238
N6435 X-0.2402 Y0.6312
N6440 X-0.2376 Y0.6396
N6445 G3 X-0.2468 Y0.6649 I-0.0295 J0.0036
N6450 X-0.2897 Y0.6221 I-0.0207 J-0.0222
N6455 G1 X-0.2836 Y0.6159
N6460 X-0.2796 Y0.6123
N6465 X-0.2777 Y0.611
N6470 X-0.2757 Y0.6099
N6475 X-0.2736 Y0.609
N6480 X-0.2714 Y0.6083
N6485 X-0.2671 Y0.6075
N6490 X-0.2658 Y0.6074
N6495 X-0.2635
N6500 X-0.261 Y0.6076
N6505 X-0.2586 Y0.6081
N6510 X-0.2565 Y0.6087
N6515 X-0.2543 Y0.6096
N6520 X-0.2501 Y0.612
N6525 X-0.2478 Y0.6137
N6530 X-0.2455 Y0.6159
N6535 X-0.2432 Y0.6188
N6540 X-0.2415 Y0.6218
N6545 X-0.2404 Y0.6244
N6550 X-0.2398 Y0.6266
N6555 X-0.2393 Y0.6287
N6560 X-0.2144 Y0.7853
N6565 X-0.2143 Y0.7882
N6570 X-0.2144 Y0.7912
N6575 X-0.2153 Y0.794 Z-0.1998
N6580 X-0.2161 Y0.7968 Z-0.1993
N6585 X-0.2169 Y0.7996 Z-0.1984
N6590 X-0.2189 Y0.8021 Z-0.1969
N6595 X-0.2206 Y0.8045 Z-0.195
N6600 X-0.2222 Y0.8066 Z-0.1927
N6605 X-0.2243 Y0.808 Z-0.1897
N6610 X-0.226 Y0.8092 Z-0.1864
N6615 X-0.2272 Y0.8101 Z-0.1827
N6620 X-0.228 Y0.8106 Z-0.1789
N6625 X-0.2282 Y0.8107 Z-0.175
N6630 G0 Z0.3
N6635 X-0.591 Y0.9598
N6640 Z-0.205
N6645 G1 Z-0.23 F15.
N6650 X-0.5908 Y0.9595 Z-0.2339
N6655 X-0.5903 Y0.9587 Z-0.2377
N6660 X-0.5896 Y0.9574 Z-0.2413
N6665 X-0.5885 Y0.9557 Z-0.2447
N6670 X-0.5872 Y0.9535 Z-0.2477
N6675 X-0.5857 Y0.9509 Z-0.2502
N6680 X-0.584 Y0.948 Z-0.2523
N6685 X-0.5822 Y0.9449 Z-0.2538
N6690 X-0.5802 Y0.9416 Z-0.2547
N6695 X-0.5782 Y0.9383 Z-0.255
N6700 G3 X-0.4958 Y0.8282 I0.5492 J0.3252
N6705 G1 X-0.4245 Y0.7568
N6710 X-0.4192 Y0.7521
N6715 X-0.4136 Y0.7477
N6720 X-0.4063 Y0.743
N6725 X-0.3971 Y0.738
N6730 X-0.3855 Y0.7329
N6735 X-0.3709 Y0.7279
N6740 X-0.3611 Y0.7253
N6745 X-0.3523 Y0.7238
N6750 X-0.3417 Y0.7228
N6755 X-0.3287 Y0.7227
N6760 X-0.3128 Y0.7237
N6765 X-0.2934 Y0.7266
N6770 X-0.2741 Y0.7311
N6775 X-0.2636 Y0.7345
N6780 X-0.2512 Y0.7396
N6785 X-0.2456 Y0.7424
N6790 X-0.2364 Y0.7483
N6795 X-0.2283 Y0.7558
N6800 X-0.2219 Y0.7647
N6805 X-0.2172 Y0.7746
N6810 X-0.2144 Y0.7853
N6815 X-0.1843 Y0.9747
N6820 G3 X-0.2061 Y1.0026 Z-0.247 I-0.0248 J0.0031
N6825 X-0.2271 Y0.9952 I-0.0031 J-0.0248
N6830 G1 X-0.4233 Y0.7922
N6835 X-0.4242 Y0.7912 Z-0.2473
N6840 G3 X-0.4245 Y0.7568 Z-0.255 I0.018 J-0.0174
N6845 G1 X-0.3697 Y0.702
N6850 X-0.3635 Y0.6965
N6855 X-0.3574 Y0.6918
N6860 X-0.3507 Y0.6874
N6865 X-0.3424 Y0.6829
N6870 X-0.3335 Y0.679
N6875 X-0.3238 Y0.6757
N6880 X-0.3129 Y0.6728
N6885 X-0.3018 Y0.6709
N6890 X-0.2906 Y0.6699
N6895 X-0.2792 Y0.6697
N6900 X-0.2786 Y0.6698
N6905 X-0.2658 Y0.6721
N6910 X-0.2538 Y0.6772
N6915 X-0.2432 Y0.6849
N6920 X-0.2347 Y0.6947
N6925 X-0.2285 Y0.7062
N6930 X-0.225 Y0.7188
N6935 G3 X-0.2467 Y0.7467 Z-0.247 I-0.0248 J0.0031
N6940 G1 X-0.2505 Y0.7469
N6945 X-0.3521 Y0.744
N6950 G3 X-0.3684 Y0.7373 I0.0007 J-0.025
N6955 X-0.3697 Y0.702 Z-0.255 I0.0171 J-0.0183
N6960 G1 X-0.3184 Y0.6507
N6965 X-0.3135 Y0.6463
N6970 X-0.3087 Y0.6426
N6975 X-0.3036 Y0.6395
N6980 X-0.3032 Y0.6392
N6985 X-0.2923 Y0.6352
N6990 X-0.2807 Y0.6339
N6995 X-0.2692 Y0.6353
N7000 X-0.2583 Y0.6393
N7005 X-0.2486 Y0.6458
N7010 X-0.2407 Y0.6544
N7015 X-0.235 Y0.6645
N7020 X-0.2318 Y0.6757
N7025 G3 X-0.2536 Y0.7036 Z-0.247 I-0.0248 J0.0031
N7030 G1 X-0.2567 Y0.7038
N7035 X-0.2597 Y0.7036
N7040 X-0.2628 Y0.703
N7045 X-0.3062 Y0.692
N7050 G3 X-0.3172 Y0.6861 I0.0061 J-0.0242
N7055 X-0.3184 Y0.6507 Z-0.255 I0.0171 J-0.0183
N7060 G1 X-0.2897 Y0.6221
N7065 X-0.2853 Y0.618
N7070 X-0.2772 Y0.6144
N7075 X-0.2685 Y0.6132
N7080 X-0.2598 Y0.6144
N7085 X-0.2517 Y0.6181
N7090 X-0.245 Y0.6238
N7095 X-0.2402 Y0.6312
N7100 X-0.2376 Y0.6396
N7105 G3 X-0.2468 Y0.6649 I-0.0295 J0.0036
N7110 X-0.2897 Y0.6221 I-0.0207 J-0.0222
N7115 G1 X-0.2836 Y0.6159
N7120 X-0.2796 Y0.6123
N7125 X-0.2777 Y0.611
N7130 X-0.2757 Y0.6099
N7135 X-0.2736 Y0.609
N7140 X-0.2714 Y0.6083
N7145 X-0.2671 Y0.6075
N7150 X-0.2658 Y0.6074
N7155 X-0.2635
N7160 X-0.261 Y0.6076
N7165 X-0.2586 Y0.6081
N7170 X-0.2565 Y0.6087
N7175 X-0.2543 Y0.6096
N7180 X-0.2501 Y0.612
N7185 X-0.2478 Y0.6137
N7190 X-0.2455 Y0.6159
N7195 X-0.2432 Y0.6188
N7200 X-0.2415 Y0.6218
N7205 X-0.2404 Y0.6244
N7210 X-0.2398 Y0.6266
N7215 X-0.2393 Y0.6287
N7220 X-0.2144 Y0.7853
N7225 X-0.2143 Y0.7882
N7230 X-0.2144 Y0.7912
N7235 X-0.2153 Y0.794 Z-0.2548
N7240 X-0.2161 Y0.7968 Z-0.2543
N7245 X-0.2169 Y0.7996 Z-0.2534
N7250 X-0.2189 Y0.8021 Z-0.2519
N7255 X-0.2206 Y0.8045 Z-0.25
N7260 X-0.2222 Y0.8066 Z-0.2477
N7265 X-0.2243 Y0.808 Z-0.2447
N7270 X-0.226 Y0.8092 Z-0.2414
N7275 X-0.2272 Y0.8101 Z-0.2377
N7280 X-0.228 Y0.8106 Z-0.2339
N7285 X-0.2282 Y0.8107 Z-0.23
N7290 G0 Z0.3
N7295 X-0.1847 Y1.1365
N7300 Z-0.05
N7305 G1 Z-0.075 F15.
N7310 X-0.1846 Y1.1368 Z-0.0789
N7315 X-0.1842 Y1.1377 Z-0.0827
N7320 X-0.1836 Y1.139 Z-0.0863
N7325 X-0.1828 Y1.1409 Z-0.0897
N7330 X-0.1818 Y1.1433 Z-0.0927
N7335 X-0.1806 Y1.146 Z-0.0952
N7340 X-0.1793 Y1.1491 Z-0.0973
N7345 X-0.1779 Y1.1524 Z-0.0988
N7350 X-0.1764 Y1.1559 Z-0.0997
N7355 X-0.1748 Y1.1595 Z-0.1
N7360 G3 X-0.1341 Y1.2908 I-0.5858 J0.2534
N7365 G1 X-0.1205 Y1.3763
N7370 X-0.1198 Y1.3848
N7375 X-0.1203 Y1.3891
N7380 X-0.1208 Y1.3912
N7385 X-0.1215 Y1.3934
N7390 X-0.1219 Y1.3944
N7395 X-0.1239 Y1.3982
N7400 X-0.1268 Y1.4019
N7405 X-0.1286 Y1.4037
N7410 X-0.1304 Y1.4053
N7415 X-0.139 Y1.4104
N7420 X-0.1475 Y1.4148
N7425 X-0.2072 Y1.4446
N7430 X-0.2096 Y1.4457
N7435 X-0.2121 Y1.4465
N7440 X-0.2146 Y1.4468 Z-0.0999
N7445 X-0.2171 Y1.4472 Z-0.0995
N7450 X-0.22 Y1.4479 Z-0.0987
N7455 X-0.2229 Y1.4486 Z-0.0975
N7460 X-0.2255 Y1.4492 Z-0.0959
N7465 X-0.2281 Y1.4503 Z-0.0937
N7470 X-0.2304 Y1.4512 Z-0.0912
N7475 X-0.2323 Y1.452 Z-0.0884
N7480 X-0.2339 Y1.4527 Z-0.0853
N7485 X-0.235 Y1.4532 Z-0.082
N7490 X-0.2357 Y1.4535 Z-0.0785
N7495 X-0.2359 Y1.4536 Z-0.075
N7500 G0 Z0.3
N7505 X-0.1847 Y1.1365
N7510 Z-0.15
N7515 G1 Z-0.175 F15.
N7520 X-0.1846 Y1.1368 Z-0.1789
N7525 X-0.1842 Y1.1377 Z-0.1827
N7530 X-0.1836 Y1.139 Z-0.1863
N7535 X-0.1828 Y1.1409 Z-0.1897
N7540 X-0.1818 Y1.1433 Z-0.1927
N7545 X-0.1806 Y1.146 Z-0.1952
N7550 X-0.1793 Y1.1491 Z-0.1973
N7555 X-0.1779 Y1.1524 Z-0.1988
N7560 X-0.1764 Y1.1559 Z-0.1997
N7565 X-0.1748 Y1.1595 Z-0.2
N7570 G3 X-0.1341 Y1.2908 I-0.5858 J0.2534
N7575 G1 X-0.1205 Y1.3763
N7580 X-0.1198 Y1.3848
N7585 X-0.1203 Y1.3891
N7590 X-0.1208 Y1.3912
N7595 X-0.1215 Y1.3934
N7600 X-0.1219 Y1.3944
N7605 X-0.1239 Y1.3982
N7610 X-0.1268 Y1.4019
N7615 X-0.1286 Y1.4037
N7620 X-0.1304 Y1.4053
N7625 X-0.139 Y1.4104
N7630 X-0.1475 Y1.4148
N7635 X-0.2072 Y1.4446
N7640 X-0.2096 Y1.4457
N7645 X-0.2121 Y1.4465
N7650 X-0.2146 Y1.4468 Z-0.1999
N7655 X-0.2171 Y1.4472 Z-0.1995
N7660 X-0.22 Y1.4479 Z-0.1987
N7665 X-0.2229 Y1.4486 Z-0.1975
N7670 X-0.2255 Y1.4492 Z-0.1959
N7675 X-0.2281 Y1.4503 Z-0.1937
N7680 X-0.2304 Y1.4512 Z-0.1912
N7685 X-0.2323 Y1.452 Z-0.1884
N7690 X-0.2339 Y1.4527 Z-0.1853
N7695 X-0.235 Y1.4532 Z-0.182
N7700 X-0.2357 Y1.4535 Z-0.1785
N7705 X-0.2359 Y1.4536 Z-0.175
N7710 G0 Z0.3
N7715 X-0.1847 Y1.1365
N7720 Z-0.205
N7725 G1 Z-0.23 F15.
N7730 X-0.1846 Y1.1368 Z-0.2339
N7735 X-0.1842 Y1.1377 Z-0.2377
N7740 X-0.1836 Y1.139 Z-0.2413
N7745 X-0.1828 Y1.1409 Z-0.2447
N7750 X-0.1818 Y1.1433 Z-0.2477
N7755 X-0.1806 Y1.146 Z-0.2502
N7760 X-0.1793 Y1.1491 Z-0.2523
N7765 X-0.1779 Y1.1524 Z-0.2538
N7770 X-0.1764 Y1.1559 Z-0.2547
N7775 X-0.1748 Y1.1595 Z-0.255
N7780 G3 X-0.1341 Y1.2908 I-0.5858 J0.2534
N7785 G1 X-0.1205 Y1.3763
N7790 X-0.1198 Y1.3848
N7795 X-0.1203 Y1.3891
N7800 X-0.1208 Y1.3912
N7805 X-0.1215 Y1.3934
N7810 X-0.1219 Y1.3944
N7815 X-0.1239 Y1.3982
N7820 X-0.1268 Y1.4019
N7825 X-0.1286 Y1.4037
N7830 X-0.1304 Y1.4053
N7835 X-0.139 Y1.4104
N7840 X-0.1475 Y1.4148
N7845 X-0.2072 Y1.4446
N7850 X-0.2096 Y1.4457
N7855 X-0.2121 Y1.4465
N7860 X-0.2146 Y1.4468 Z-0.2549
N7865 X-0.2171 Y1.4472 Z-0.2545
N7870 X-0.22 Y1.4479 Z-0.2537
N7875 X-0.2229 Y1.4486 Z-0.2525
N7880 X-0.2255 Y1.4492 Z-0.2509
N7885 X-0.2281 Y1.4503 Z-0.2487
N7890 X-0.2304 Y1.4512 Z-0.2462
N7895 X-0.2323 Y1.452 Z-0.2434
N7900 X-0.2339 Y1.4527 Z-0.2403
N7905 X-0.235 Y1.4532 Z-0.237
N7910 X-0.2357 Y1.4535 Z-0.2335
N7915 X-0.2359 Y1.4536 Z-0.23
N7920 G0 Z0.3
N7925 X-0.4412 Y1.5943
N7930 Z-0.0688
N7935 G1 Z-0.0938 F15.
N7940 G3 X-0.4636 Y1.6147 Z-0.1 I-0.44 J-0.4624
N7945 G1 X-0.4893 Y1.6353
N7950 X-0.4914 Y1.6369
N7955 X-0.4937 Y1.6382
N7960 X-0.4961 Y1.6391 Z-0.0999
N7965 X-0.4984 Y1.64 Z-0.0995
N7970 X-0.5016 Y1.6414 Z-0.0985
N7975 X-0.5047 Y1.6427 Z-0.097
N7980 X-0.5074 Y1.6443 Z-0.0949
N7985 X-0.5099 Y1.6458 Z-0.0924
N7990 X-0.512 Y1.6471 Z-0.0894
N7995 X-0.5137 Y1.6481 Z-0.0861
N8000 X-0.5149 Y1.6488 Z-0.0826
N8005 X-0.5157 Y1.6493 Z-0.0788
N8010 X-0.5159 Y1.6494 Z-0.075
N8015 G0 Z0.3
N8020 X-0.4412 Y1.5943
N8025 Z-0.1688
N8030 G1 Z-0.1938 F15.
N8035 G3 X-0.4636 Y1.6147 Z-0.2 I-0.44 J-0.4624
N8040 G1 X-0.4893 Y1.6353
N8045 X-0.4914 Y1.6369
N8050 X-0.4937 Y1.6382
N8055 X-0.4961 Y1.6391 Z-0.1999
N8060 X-0.4984 Y1.64 Z-0.1995
N8065 X-0.5011 Y1.6411 Z-0.1987
N8070 X-0.5037 Y1.6421 Z-0.1976
N8075 X-0.5064 Y1.6436 Z-0.1958
N8080 X-0.5089 Y1.6449 Z-0.1937
N8085 X-0.511 Y1.6461 Z-0.1912
N8090 X-0.5128 Y1.6471 Z-0.1883
N8095 X-0.5143 Y1.6479 Z-0.1852
N8100 X-0.5154 Y1.6484 Z-0.1819
N8105 X-0.516 Y1.6488 Z-0.1785
N8110 X-0.5162 Y1.6489 Z-0.175
N8115 G0 Z0.3
N8120 X-0.4412 Y1.5943
N8125 Z-0.2238
N8130 G1 Z-0.2488 F15.
N8135 G3 X-0.4636 Y1.6147 Z-0.255 I-0.44 J-0.4624
N8140 G1 X-0.4893 Y1.6353
N8145 X-0.4914 Y1.6369
N8150 X-0.4937 Y1.6382
N8155 X-0.4961 Y1.6391 Z-0.2549
N8160 X-0.4984 Y1.64 Z-0.2545
N8165 X-0.5016 Y1.6414 Z-0.2535
N8170 X-0.5047 Y1.6427 Z-0.252
N8175 X-0.5074 Y1.6443 Z-0.2499
N8180 X-0.5099 Y1.6458 Z-0.2474
N8185 X-0.512 Y1.6471 Z-0.2444
N8190 X-0.5137 Y1.6481 Z-0.2411
N8195 X-0.5149 Y1.6488 Z-0.2376
N8200 X-0.5157 Y1.6493 Z-0.2338
N8205 X-0.5159 Y1.6494 Z-0.23
N8210 G0 Z0.3
N8215 X-0.6426 Y1.7925
N8220 Z-0.0688
N8225 G1 Z-0.0938 F15.
N8230 G3 X-0.6601 Y1.8172 Z-0.1 I-0.5283 J-0.3582
N8235 G1 X-0.6858 Y1.849
N8240 X-0.6875 Y1.851
N8245 X-0.6895 Y1.8527
N8250 X-0.6916 Y1.8541 Z-0.0999
N8255 X-0.6937 Y1.8555 Z-0.0995
N8260 X-0.6969 Y1.8572 Z-0.0985
N8265 X-0.7 Y1.8588 Z-0.0969
N8270 X-0.7028 Y1.8603 Z-0.0948
N8275 X-0.7053 Y1.8616 Z-0.0922
N8280 X-0.7074 Y1.8627 Z-0.0893
N8285 X-0.7091 Y1.8636 Z-0.086
N8290 X-0.7103 Y1.8643 Z-0.0825
N8295 X-0.7111 Y1.8647 Z-0.0788
N8300 X-0.7114 Y1.8648 Z-0.075
N8305 G0 Z0.3
N8310 X-0.6364 Y1.7849
N8315 Z-0.1688
N8320 G1 Z-0.1938 F15.
N8325 G3 X-0.654 Y1.8095 Z-0.2 I-0.5283 J-0.3582
N8330 G1 X-0.6835 Y1.8462
N8335 X-0.6853 Y1.8481
N8340 X-0.6872 Y1.8499
N8345 X-0.6893 Y1.8513 Z-0.1999
N8350 X-0.6914 Y1.8526 Z-0.1995
N8355 X-0.6946 Y1.8544 Z-0.1985
N8360 X-0.6976 Y1.8561 Z-0.1969
N8365 X-0.7004 Y1.8577 Z-0.1948
N8370 X-0.7028 Y1.8591 Z-0.1922
N8375 X-0.7049 Y1.8602 Z-0.1893
N8380 X-0.7066 Y1.8612 Z-0.186
N8385 X-0.7079 Y1.8619 Z-0.1825
N8390 X-0.7086 Y1.8623 Z-0.1788
N8395 X-0.7089 Y1.8624 Z-0.175
N8400 G0 Z0.3
N8405 X-0.6426 Y1.7925
N8410 Z-0.2238
N8415 G1 Z-0.2488 F15.
N8420 G3 X-0.6601 Y1.8172 Z-0.255 I-0.5283 J-0.3582
N8425 G1 X-0.6858 Y1.849
N8430 X-0.6875 Y1.851
N8435 X-0.6895 Y1.8527
N8440 X-0.6916 Y1.8541 Z-0.2549
N8445 X-0.6937 Y1.8555 Z-0.2545
N8450 X-0.6969 Y1.8572 Z-0.2535
N8455 X-0.7 Y1.8588 Z-0.2519
N8460 X-0.7028 Y1.8603 Z-0.2498
N8465 X-0.7053 Y1.8616 Z-0.2472
N8470 X-0.7074 Y1.8627 Z-0.2443
N8475 X-0.7091 Y1.8636 Z-0.241
N8480 X-0.7103 Y1.8643 Z-0.2375
N8485 X-0.7111 Y1.8647 Z-0.2338
N8490 X-0.7114 Y1.8648 Z-0.23
N8495 G0 Z0.3
N8500 X-0.9687 Y2.808
N8505 Z0.075
N8510 G1 Z0.05 F15.
N8515 Z-0.1
N8520 X-0.9698 Y2.809
N8525 X-0.9713
N8530 X-0.9721 Y2.8078
N8535 X-0.9723 Y2.8063
N8540 X-0.9718 Y2.8049
N8545 X-0.9708 Y2.8037
N8550 X-0.9695 Y2.803
N8555 X-0.968 Y2.8027
N8560 X-0.9665 Y2.8029
N8565 X-0.9651 Y2.8034
N8570 X-0.9628 Y2.8053
N8575 X-0.9616 Y2.8081
N8580 X-0.9618 Y2.8111
N8585 X-0.9631 Y2.8137
N8590 X-0.9652 Y2.8159
N8595 X-0.9679 Y2.8173
N8600 X-0.9709 Y2.8178
N8605 X-0.9738 Y2.8175
N8610 X-0.9794 Y2.8152
N8615 X-0.9832 Y2.8106
N8620 X-0.9846 Y2.8047
N8625 X-0.983 Y2.8001
N8630 X-0.9797 Y2.7964
N8635 X-0.9753 Y2.7942
N8640 X-0.9703 Y2.7939
N8645 X-0.9656 Y2.7954
N8650 X-0.9653 Y2.7956
N8655 X-0.9632 Y2.7971
N8660 X-0.9612 Y2.7988
N8665 X-0.9592 Y2.801
N8670 X-0.9577 Y2.803
N8675 X-0.9563 Y2.8052
N8680 X-0.9553 Y2.8073
N8685 X-0.9548 Y2.8085
N8690 X-0.9544 Y2.8094
N8695 X-0.9532 Y2.8144
N8700 X-0.9531 Y2.8153
N8705 X-0.9537 Y2.8162 Z-0.0997
N8710 X-0.9542 Y2.8169 Z-0.0988
N8715 X-0.9544 Y2.8171 Z-0.0976
N8720 G0 Z0.3
N8725 X-0.9639 Y2.7972
N8730 Z0.0037
N8735 G1 Z-0.0213 F15.
N8740 Z-0.1
N8745 G3 X-0.9544 Y2.8094 I-0.0191 J0.0246
N8750 G1 X-0.9538 Y2.8116
N8755 X-0.9529 Y2.816
N8760 X-0.9525 Y2.8189
N8765 X-0.9545 Y2.8246
N8770 X-0.9581 Y2.8294
N8775 X-0.9627 Y2.8332
N8780 X-0.9681 Y2.8358
N8785 X-0.974 Y2.8371
N8790 X-0.98 Y2.8372
N8795 X-0.9859 Y2.8361
N8800 X-0.9915 Y2.8339
N8805 X-0.9975 Y2.8286
N8810 X-1.0013 Y2.8214
N8815 X-1.0024 Y2.8135
N8820 X-1.0006 Y2.8056
N8825 X-0.9963 Y2.7988
N8830 X-0.9898 Y2.794
N8835 X-0.9821 Y2.7917
N8840 X-0.9741 Y2.7922
N8845 X-0.972 Y2.7927
N8850 X-0.9677 Y2.7943
N8855 X-0.9656 Y2.7954
N8860 X-0.9631 Y2.7973
N8865 X-0.961 Y2.7996
N8870 X-0.9593 Y2.8023
N8875 X-0.9544 Y2.812
N8880 X-0.9535 Y2.814
N8885 X-0.9529 Y2.816
N8890 X-0.9521 Y2.8201
N8895 X-0.951 Y2.8287
N8900 X-0.9505 Y2.8346
N8905 X-0.9517 Y2.8405
N8910 X-0.9542 Y2.846
N8915 X-0.9578 Y2.8508
N8920 X-0.9621 Y2.8549
N8925 X-0.9671 Y2.8583
N8930 X-0.9725 Y2.8609
N8935 X-0.9782 Y2.8627
N8940 X-0.9841 Y2.8636
N8945 X-0.9901 Y2.8637
N8950 X-0.9961 Y2.863
N8955 X-1.0019 Y2.8615
N8960 X-1.0105 Y2.8567
N8965 X-1.0175 Y2.8498
N8970 X-1.0224 Y2.8413
N8975 X-1.0249 Y2.8318
N8980 Y2.822
N8985 X-1.0223 Y2.8126
N8990 X-1.0172 Y2.8041
N8995 X-1.0101 Y2.7973
N9000 X-1.0015 Y2.7926
N9005 X-0.992 Y2.7903
N9010 X-0.9822 Y2.7907
N9015 X-0.9763 Y2.7916
N9020 X-0.9741 Y2.7922
N9025 G3 X-0.957 Y2.8088 I-0.0068 J0.0241
N9030 G1 X-0.9518 Y2.8254
N9035 X-0.951 Y2.8287
N9040 X-0.9482 Y2.8504
N9045 X-0.9478 Y2.8564
N9050 X-0.9485 Y2.8624
N9055 X-0.9503 Y2.8681
N9060 X-0.953 Y2.8734
N9065 X-0.9565 Y2.8784
N9070 X-0.9605 Y2.8828
N9075 X-0.9651 Y2.8867
N9080 X-0.9701 Y2.89
N9085 X-0.9754 Y2.8927
N9090 X-0.981 Y2.8949
N9095 X-0.9868 Y2.8964
N9100 X-0.9928 Y2.8974
N9105 X-0.9988 Y2.8977
N9110 X-1.0047 Y2.8975
N9115 X-1.0107 Y2.8967
N9120 X-1.0165 Y2.8954
N9125 X-1.0223 Y2.8935
N9130 X-1.0278 Y2.8912
N9135 X-1.0331 Y2.8884
N9140 X-1.0381 Y2.8851
N9145 X-1.0428 Y2.8814
N9150 X-1.0472 Y2.8773
N9155 X-1.0513 Y2.8729
N9160 X-1.055 Y2.8682
N9165 X-1.0584 Y2.8629
N9170 X-1.0613 Y2.8576
N9175 X-1.0637 Y2.8521
N9180 X-1.0658 Y2.846
N9185 X-1.0659 Y2.8455
N9190 X-1.0674 Y2.8337
N9195 X-1.066 Y2.8219
N9200 X-1.0617 Y2.8108
N9205 X-1.0549 Y2.8011
N9210 X-1.0459 Y2.7933
N9215 X-1.0352 Y2.7881
N9220 X-1.0236 Y2.7855
N9225 X-1.0117 Y2.7859
N9230 X-0.9822 Y2.7907
N9235 G3 X-0.9636 Y2.8066 I-0.005 J0.0245
N9240 G1 X-0.9618 Y2.8117
N9245 X-0.9583 Y2.8213
N9250 X-0.9494 Y2.8459
N9255 X-0.9487 Y2.8482
N9260 X-0.9482 Y2.8504
N9265 X-0.9444 Y2.8799
N9270 X-0.944 Y2.8859
N9275 X-0.9447 Y2.8919
N9280 X-0.9462 Y2.8977
N9285 X-0.9485 Y2.9032
N9290 X-0.9515 Y2.9084
N9295 X-0.9549 Y2.9133
N9300 X-0.9589 Y2.9178
N9305 X-0.9633 Y2.9219
N9310 X-0.968 Y2.9257
N9315 X-0.973 Y2.929
N9320 X-0.9784 Y2.9319
N9325 X-0.9842 Y2.9345
N9330 X-0.9905 Y2.9367
N9335 X-0.9972 Y2.9385
N9340 X-1.0042 Y2.9398
N9345 X-1.0115 Y2.9405
N9350 X-1.019 Y2.9407
N9355 X-1.0268 Y2.9402
N9360 X-1.0347 Y2.9391
N9365 X-1.0427 Y2.9372
N9370 X-1.0508 Y2.9347
N9375 X-1.0587 Y2.9315
N9380 X-1.0666 Y2.9276
N9385 X-1.0741 Y2.9231
N9390 X-1.0808 Y2.9182
N9395 X-1.0877 Y2.9124
N9400 X-1.0939 Y2.9062
N9405 X-1.0991 Y2.9
N9410 X-1.1044 Y2.8928
N9415 X-1.1088 Y2.8855
N9420 X-1.1124 Y2.8783
N9425 X-1.1157 Y2.8701
N9430 X-1.1183 Y2.862
N9435 X-1.1201 Y2.8542
N9440 X-1.1213 Y2.8456
N9445 X-1.1218 Y2.8371
N9450 X-1.1217 Y2.8292
N9455 X-1.1194 Y2.8179
N9460 X-1.1149 Y2.8073
N9465 X-1.1083 Y2.7979
N9470 X-1.1 Y2.7899
N9475 X-1.0902 Y2.7838
N9480 X-1.0794 Y2.7799
N9485 X-1.068 Y2.7782
N9490 X-1.0565 Y2.7788
N9495 X-1.0117 Y2.7859
N9500 G3 X-0.9955 Y2.7969 I-0.0048 J0.0245
N9505 G1 X-0.9896 Y2.806
N9510 X-0.9593 Y2.853
N9515 X-0.9481 Y2.8704
N9520 G3 X-0.9444 Y2.8799 I-0.021 J0.0135
N9525 G1 X-0.9433 Y2.8885
N9530 X-0.9419 Y2.897
N9535 X-0.9395 Y2.9102
N9540 X-0.9386 Y2.9162
N9545 Y2.9222
N9550 X-0.9394 Y2.9281
N9555 X-0.9408 Y2.934
N9560 X-0.9428 Y2.9396
N9565 X-0.9454 Y2.945
N9570 X-0.9484 Y2.9502
N9575 X-0.952 Y2.9553
N9580 X-0.9562 Y2.9604
N9585 X-0.9611 Y2.9654
N9590 X-0.9665 Y2.9701
N9595 X-0.9727 Y2.9747
N9600 X-0.9796 Y2.979
N9605 X-0.9871 Y2.9829
N9610 X-0.9896 Y2.984
N9615 X-1.002 Y2.9876
N9620 X-1.0149 Y2.9884
N9625 X-1.0276 Y2.9864
N9630 X-1.0396 Y2.9816
N9635 X-1.0502 Y2.9743
N9640 G3 X-1.0516 Y2.939 Z-0.092 I0.017 J-0.0184
N9645 G1 X-1.0489 Y2.9365
N9650 X-1.0458 Y2.9343
N9655 X-0.9764 Y2.8941
N9660 X-0.973 Y2.8924
N9665 X-0.9693 Y2.8913
N9670 G3 X-0.9395 Y2.9102 Z-0.1 I0.0054 J0.0244
N9675 G1 X-0.9355 Y2.9312
N9680 X-0.9317 Y2.9509
N9685 X-0.9309 Y2.9568
N9690 X-0.9307 Y2.9628
N9695 X-0.9313 Y2.9688
N9700 X-0.9324 Y2.9747
N9705 X-0.934 Y2.9804
N9710 X-0.9361 Y2.986
N9715 X-0.9425 Y2.9961
N9720 X-0.9509 Y3.0045
N9725 X-0.961 Y3.0108
N9730 X-0.9723 Y3.0145
N9735 X-0.9842 Y3.0156
N9740 X-0.996 Y3.014
N9745 X-1.0071 Y3.0097
N9750 X-1.0169 Y3.003
N9755 G3 X-1.0183 Y2.9677 Z-0.092 I0.017 J-0.0184
N9760 G1 X-1.016 Y2.9655
N9765 X-1.0135 Y2.9637
N9770 X-0.9696 Y2.9354
N9775 X-0.9671 Y2.934
N9780 X-0.9644 Y2.9329
N9785 X-0.9616 Y2.9321
N9790 G3 X-0.9317 Y2.9509 Z-0.1 I0.0056 J0.0244
N9795 G1 X-0.9273 Y2.9739
N9800 X-0.925 Y2.9835
N9805 X-0.924 Y2.9876
N9810 X-0.9228 Y2.9935
N9815 X-0.9236 Y3.004
N9820 X-0.927 Y3.0139
N9825 X-0.9329 Y3.0226
N9830 X-0.9408 Y3.0295
N9835 X-0.9502 Y3.0342
N9840 X-0.9605 Y3.0362
N9845 X-0.971 Y3.0356
N9850 X-0.981 Y3.0323
N9855 X-0.9897 Y3.0265
N9860 G3 X-1.0007 Y3.0077 Z-0.0955 I0.0254 J-0.0274
N9865 X-1.001 Y2.9907 Z-0.092 I0.0386 J-0.0092
N9870 X-0.9503 Y2.9607 I0.0389 J0.0079
N9875 X-0.924 Y2.9876 Z-0.1 I-0.0118 J0.0379
N9880 G1 X-0.921 Y2.9995
N9885 X-0.9166 Y3.0166
N9890 X-0.9154 Y3.0225
N9895 X-0.9168 Y3.0313
N9900 X-0.9207 Y3.0393
N9905 X-0.9266 Y3.0459
N9910 X-0.9341 Y3.0506
N9915 X-0.9427 Y3.053
N9920 X-0.9516 Y3.0529
N9925 X-0.9601 Y3.0504
N9930 X-0.9676 Y3.0456
N9935 G3 X-0.9756 Y3.0313 I0.0182 J-0.0196
N9940 X-0.9166 Y3.0166 I0.0298 J-0.006
N9945 G1 X-0.9144 Y3.0252
N9950 X-0.9122 Y3.0337
N9955 X-0.9119 Y3.038
N9960 X-0.9122 Y3.0422
N9965 X-0.9127 Y3.0444
N9970 X-0.9133 Y3.0465
N9975 X-0.9142 Y3.0487
N9980 X-0.9153 Y3.0508
N9985 X-0.9164 Y3.0525
N9990 X-0.918 Y3.0545
N9995 X-0.92 Y3.0565
N10000 X-0.9235 Y3.0593
N10005 X-0.925 Y3.0603
N10010 X-0.9271 Y3.0614
N10015 X-0.9293 Y3.0622
N10020 X-0.9314 Y3.0628
N10025 X-0.9335 Y3.0633
N10030 X-0.9378 Y3.0636
N10035 X-0.9421 Y3.0631
N10040 X-0.9442 Y3.0626
N10045 X-0.9464 Y3.0619
N10050 X-0.9485 Y3.061
N10055 X-0.9506 Y3.0598
N10060 X-0.9514 Y3.0593
N10065 X-0.9592 Y3.0529
N10070 X-1.1386 Y2.8981
N10075 X-1.1459 Y2.8912
N10080 X-1.1502 Y2.8863
N10085 X-1.1545 Y2.8807
N10090 X-1.1584 Y2.8745
N10095 X-1.1617 Y2.8684
N10100 X-1.1647 Y2.8614
N10105 X-1.1671 Y2.8543
N10110 X-1.1689 Y2.8472
N10115 X-1.1702 Y2.8393
N10120 X-1.1709 Y2.8316
N10125 Y2.8238
N10130 X-1.1688 Y2.8121
N10135 X-1.1643 Y2.8011
N10140 X-1.1577 Y2.7912
N10145 X-1.1492 Y2.7829
N10150 X-1.1392 Y2.7766
N10155 X-1.128 Y2.7724
N10160 X-1.1163 Y2.7706
N10165 X-1.1044 Y2.7712
N10170 G3 X-1.0845 Y2.7998 Z-0.0921 I-0.0048 J0.0245
N10175 G1 X-1.0846 Y2.8005 Z-0.092
N10180 X-1.0983 Y2.8827
N10185 G3 X-1.1034 Y2.8943 I-0.0247 J-0.0041
N10190 X-1.1386 Y2.8981 Z-0.1 I-0.0195 J-0.0157
N10195 G1 X-1.1858 Y2.8574
N10200 X-1.1901 Y2.8533
N10205 X-1.194 Y2.8487
N10210 X-1.1973 Y2.8437
N10215 X-1.2002 Y2.8385
N10220 X-1.2025 Y2.8329
N10225 X-1.2043 Y2.8272
N10230 X-1.2056 Y2.8213
N10235 X-1.2058 Y2.8095
N10240 X-1.2032 Y2.798
N10245 X-1.1981 Y2.7874
N10250 X-1.1907 Y2.7782
N10255 X-1.1813 Y2.771
N10260 X-1.1706 Y2.7662
N10265 X-1.159 Y2.7639
N10270 X-1.1472 Y2.7644
N10275 G3 X-1.1274 Y2.7937 Z-0.092 I-0.0048 J0.0245
N10280 G1 X-1.1279 Y2.7957
N10285 X-1.1285 Y2.7976
N10290 X-1.1467 Y2.8466
N10295 X-1.1477 Y2.8491
N10300 X-1.1491 Y2.8514
N10305 X-1.1506 Y2.8536
N10310 G3 X-1.1858 Y2.8574 Z-0.1 I-0.0195 J-0.0157
N10315 G1 X-1.2175 Y2.8301
N10320 X-1.2218 Y2.8259
N10325 X-1.2273 Y2.8163
N10330 X-1.2301 Y2.8056
N10335 X-1.2299 Y2.7945
N10340 X-1.2269 Y2.7838
N10345 X-1.2212 Y2.7743
N10350 X-1.2132 Y2.7666
N10355 X-1.2035 Y2.7613
N10360 X-1.1927 Y2.7587
N10365 X-1.1816 Y2.7589
N10370 G3 X-1.1638 Y2.768 Z-0.0959 I-0.007 J0.0357
N10375 X-1.1533 Y2.7837 Z-0.092 I-0.028 J0.03
N10380 X-1.1805 Y2.8375 I-0.0385 J0.0144
N10385 X-1.1918 Y2.8391 Z-0.0943 I-0.0113 J-0.0395
N10390 X-1.2175 Y2.8301 Z-0.1 I0. J-0.0411
N10395 G1 X-1.239 Y2.8116
N10400 X-1.2433 Y2.8074
N10405 X-1.2469 Y2.8026
N10410 X-1.25 Y2.794
N10415 X-1.2506 Y2.7848
N10420 X-1.2487 Y2.7758
N10425 X-1.2443 Y2.7676
N10430 X-1.238 Y2.761
N10435 X-1.23 Y2.7563
N10440 X-1.2211 Y2.754
N10445 X-1.2119 Y2.7541
N10450 G3 X-1.1975 Y2.761 I-0.0061 J0.0314
N10455 X-1.239 Y2.8116 I-0.0209 J0.0251
N10460 G1 X-1.2582 Y2.795
N10465 X-1.2588 Y2.7945
N10470 X-1.261 Y2.7923
N10475 X-1.2628 Y2.7902
N10480 X-1.2643 Y2.7881
N10485 X-1.2654 Y2.7859
N10490 X-1.2667 Y2.7826
N10495 X-1.2674 Y2.78
N10500 X-1.2677 Y2.7774
N10505 Y2.7731
N10510 X-1.267 Y2.7689
N10515 X-1.2667 Y2.7679
N10520 X-1.2652 Y2.7641
N10525 X-1.2642 Y2.7622
N10530 X-1.2629 Y2.7603
N10535 X-1.2609 Y2.7579
N10540 X-1.2582 Y2.7555
N10545 X-1.2552 Y2.7533
N10550 X-1.2522 Y2.7518
N10555 X-1.2496 Y2.7508
N10560 X-1.2475 Y2.7502
N10565 X-1.2454 Y2.7499
N10570 X-1.2411 Y2.7497
N10575 X-1.2326 Y2.7509
N10580 X-1.0565 Y2.7788
N10585 X-1.0537 Y2.7796
N10590 X-1.0509 Y2.7806
N10595 X-1.0485 Y2.7823 Z-0.0998
N10600 X-1.046 Y2.784 Z-0.0993
N10605 X-1.0437 Y2.7856 Z-0.0984
N10610 X-1.0419 Y2.7882 Z-0.0969
N10615 X-1.0402 Y2.7907 Z-0.095
N10620 X-1.0386 Y2.7928 Z-0.0927
N10625 X-1.0379 Y2.7953 Z-0.0897
N10630 X-1.0373 Y2.7972 Z-0.0864
N10635 X-1.0369 Y2.7987 Z-0.0827
N10640 X-1.0367 Y2.7995 Z-0.0789
N10645 X-1.0366 Y2.7998 Z-0.075
N10650 G0 Z0.3
N10655 X-0.9687 Y2.808
N10660 Z-0.025
N10665 G1 Z-0.05 F15.
N10670 Z-0.2
N10675 X-0.9698 Y2.809
N10680 X-0.9713
N10685 X-0.9721 Y2.8078
N10690 X-0.9723 Y2.8063
N10695 X-0.9718 Y2.8049
N10700 X-0.9708 Y2.8037
N10705 X-0.9695 Y2.803
N10710 X-0.968 Y2.8027
N10715 X-0.9665 Y2.8029
N10720 X-0.9651 Y2.8034
N10725 X-0.9628 Y2.8053
N10730 X-0.9616 Y2.8081
N10735 X-0.9618 Y2.8111
N10740 X-0.9631 Y2.8137
N10745 X-0.9652 Y2.8159
N10750 X-0.9679 Y2.8173
N10755 X-0.9709 Y2.8178
N10760 X-0.9738 Y2.8175
N10765 X-0.9794 Y2.8152
N10770 X-0.9832 Y2.8106
N10775 X-0.9846 Y2.8047
N10780 X-0.983 Y2.8001
N10785 X-0.9797 Y2.7964
N10790 X-0.9753 Y2.7942
N10795 X-0.9703 Y2.7939
N10800 X-0.9656 Y2.7954
N10805 X-0.9653 Y2.7956
N10810 X-0.9632 Y2.7971
N10815 X-0.9612 Y2.7988
N10820 X-0.9592 Y2.801
N10825 X-0.9577 Y2.803
N10830 X-0.9563 Y2.8052
N10835 X-0.9553 Y2.8073
N10840 X-0.9548 Y2.8085
N10845 X-0.9544 Y2.8094
N10850 X-0.9532 Y2.8144
N10855 X-0.9531 Y2.8153
N10860 X-0.9537 Y2.8162 Z-0.1997
N10865 X-0.9542 Y2.8169 Z-0.1988
N10870 X-0.9544 Y2.8171 Z-0.1976
N10875 G0 Z0.3
N10880 X-0.9639 Y2.7972
N10885 Z-0.0963
N10890 G1 Z-0.1213 F15.
N10895 Z-0.2
N10900 G3 X-0.9544 Y2.8094 I-0.0191 J0.0246
N10905 G1 X-0.9538 Y2.8116
N10910 X-0.9529 Y2.816
N10915 X-0.9525 Y2.8189
N10920 X-0.9545 Y2.8246
N10925 X-0.9581 Y2.8294
N10930 X-0.9627 Y2.8332
N10935 X-0.9681 Y2.8358
N10940 X-0.974 Y2.8371
N10945 X-0.98 Y2.8372
N10950 X-0.9859 Y2.8361
N10955 X-0.9915 Y2.8339
N10960 X-0.9975 Y2.8286
N10965 X-1.0013 Y2.8214
N10970 X-1.0024 Y2.8135
N10975 X-1.0006 Y2.8056
N10980 X-0.9963 Y2.7988
N10985 X-0.9898 Y2.794
N10990 X-0.9821 Y2.7917
N10995 X-0.9741 Y2.7922
N11000 X-0.972 Y2.7927
N11005 X-0.9677 Y2.7943
N11010 X-0.9656 Y2.7954
N11015 X-0.9631 Y2.7973
N11020 X-0.961 Y2.7996
N11025 X-0.9593 Y2.8023
N11030 X-0.9544 Y2.812
N11035 X-0.9535 Y2.814
N11040 X-0.9529 Y2.816
N11045 X-0.9521 Y2.8201
N11050 X-0.951 Y2.8287
N11055 X-0.9505 Y2.8346
N11060 X-0.9517 Y2.8405
N11065 X-0.9542 Y2.846
N11070 X-0.9578 Y2.8508
N11075 X-0.9621 Y2.8549
N11080 X-0.9671 Y2.8583
N11085 X-0.9725 Y2.8609
N11090 X-0.9782 Y2.8627
N11095 X-0.9841 Y2.8636
N11100 X-0.9901 Y2.8637
N11105 X-0.9961 Y2.863
N11110 X-1.0019 Y2.8615
N11115 X-1.0105 Y2.8567
N11120 X-1.0175 Y2.8498
N11125 X-1.0224 Y2.8413
N11130 X-1.0249 Y2.8318
N11135 Y2.822
N11140 X-1.0223 Y2.8126
N11145 X-1.0172 Y2.8041
N11150 X-1.0101 Y2.7973
N11155 X-1.0015 Y2.7926
N11160 X-0.992 Y2.7903
N11165 X-0.9822 Y2.7907
N11170 X-0.9763 Y2.7916
N11175 X-0.9741 Y2.7922
N11180 G3 X-0.957 Y2.8088 I-0.0068 J0.0241
N11185 G1 X-0.9518 Y2.8254
N11190 X-0.951 Y2.8287
N11195 X-0.9482 Y2.8504
N11200 X-0.9478 Y2.8564
N11205 X-0.9485 Y2.8624
N11210 X-0.9503 Y2.8681
N11215 X-0.953 Y2.8734
N11220 X-0.9565 Y2.8784
N11225 X-0.9605 Y2.8828
N11230 X-0.9651 Y2.8867
N11235 X-0.9701 Y2.89
N11240 X-0.9754 Y2.8927
N11245 X-0.981 Y2.8949
N11250 X-0.9868 Y2.8964
N11255 X-0.9928 Y2.8974
N11260 X-0.9988 Y2.8977
N11265 X-1.0047 Y2.8975
N11270 X-1.0107 Y2.8967
N11275 X-1.0165 Y2.8954
N11280 X-1.0223 Y2.8935
N11285 X-1.0278 Y2.8912
N11290 X-1.0331 Y2.8884
N11295 X-1.0381 Y2.8851
N11300 X-1.0428 Y2.8814
N11305 X-1.0472 Y2.8773
N11310 X-1.0513 Y2.8729
N11315 X-1.055 Y2.8682
N11320 X-1.0584 Y2.8629
N11325 X-1.0613 Y2.8576
N11330 X-1.0637 Y2.8521
N11335 X-1.0658 Y2.846
N11340 X-1.0659 Y2.8455
N11345 X-1.0674 Y2.8337
N11350 X-1.066 Y2.8219
N11355 X-1.0617 Y2.8108
N11360 X-1.0549 Y2.8011
N11365 X-1.0459 Y2.7933
N11370 X-1.0352 Y2.7881
N11375 X-1.0236 Y2.7855
N11380 X-1.0117 Y2.7859
N11385 X-0.9822 Y2.7907
N11390 G3 X-0.9636 Y2.8066 I-0.005 J0.0245
N11395 G1 X-0.9618 Y2.8117
N11400 X-0.9583 Y2.8213
N11405 X-0.9494 Y2.8459
N11410 X-0.9487 Y2.8482
N11415 X-0.9482 Y2.8504
N11420 X-0.9444 Y2.8799
N11425 X-0.944 Y2.8859
N11430 X-0.9447 Y2.8919
N11435 X-0.9462 Y2.8977
N11440 X-0.9485 Y2.9032
N11445 X-0.9515 Y2.9084
N11450 X-0.9549 Y2.9133
N11455 X-0.9589 Y2.9178
N11460 X-0.9633 Y2.9219
N11465 X-0.968 Y2.9257
N11470 X-0.973 Y2.929
N11475 X-0.9784 Y2.9319
N11480 X-0.9842 Y2.9345
N11485 X-0.9905 Y2.9367
N11490 X-0.9972 Y2.9385
N11495 X-1.0042 Y2.9398
N11500 X-1.0115 Y2.9405
N11505 X-1.019 Y2.9407
N11510 X-1.0268 Y2.9402
N11515 X-1.0347 Y2.9391
N11520 X-1.0427 Y2.9372
N11525 X-1.0508 Y2.9347
N11530 X-1.0587 Y2.9315
N11535 X-1.0666 Y2.9276
N11540 X-1.0741 Y2.9231
N11545 X-1.0808 Y2.9182
N11550 X-1.0877 Y2.9124
N11555 X-1.0939 Y2.9062
N11560 X-1.0991 Y2.9
N11565 X-1.1044 Y2.8928
N11570 X-1.1088 Y2.8855
N11575 X-1.1124 Y2.8783
N11580 X-1.1157 Y2.8701
N11585 X-1.1183 Y2.862
N11590 X-1.1201 Y2.8542
N11595 X-1.1213 Y2.8456
N11600 X-1.1218 Y2.8371
N11605 X-1.1217 Y2.8292
N11610 X-1.1194 Y2.8179
N11615 X-1.1149 Y2.8073
N11620 X-1.1083 Y2.7979
N11625 X-1.1 Y2.7899
N11630 X-1.0902 Y2.7838
N11635 X-1.0794 Y2.7799
N11640 X-1.068 Y2.7782
N11645 X-1.0565 Y2.7788
N11650 X-1.0117 Y2.7859
N11655 G3 X-0.9955 Y2.7969 I-0.0048 J0.0245
N11660 G1 X-0.9896 Y2.806
N11665 X-0.9593 Y2.853
N11670 X-0.9481 Y2.8704
N11675 G3 X-0.9444 Y2.8799 I-0.021 J0.0135
N11680 G1 X-0.9433 Y2.8885
N11685 X-0.9419 Y2.897
N11690 X-0.9395 Y2.9102
N11695 X-0.9386 Y2.9162
N11700 Y2.9222
N11705 X-0.9394 Y2.9281
N11710 X-0.9408 Y2.934
N11715 X-0.9428 Y2.9396
N11720 X-0.9454 Y2.945
N11725 X-0.9484 Y2.9502
N11730 X-0.952 Y2.9553
N11735 X-0.9562 Y2.9604
N11740 X-0.9611 Y2.9654
N11745 X-0.9665 Y2.9701
N11750 X-0.9727 Y2.9747
N11755 X-0.9796 Y2.979
N11760 X-0.9871 Y2.9829
N11765 X-0.9896 Y2.984
N11770 X-1.002 Y2.9876
N11775 X-1.0149 Y2.9884
N11780 X-1.0276 Y2.9864
N11785 X-1.0396 Y2.9816
N11790 X-1.0502 Y2.9743
N11795 G3 X-1.0516 Y2.939 Z-0.192 I0.017 J-0.0184
N11800 G1 X-1.0489 Y2.9365
N11805 X-1.0458 Y2.9343
N11810 X-0.9764 Y2.8941
N11815 X-0.973 Y2.8924
N11820 X-0.9693 Y2.8913
N11825 G3 X-0.9395 Y2.9102 Z-0.2 I0.0054 J0.0244
N11830 G1 X-0.9355 Y2.9312
N11835 X-0.9317 Y2.9509
N11840 X-0.9309 Y2.9568
N11845 X-0.9307 Y2.9628
N11850 X-0.9313 Y2.9688
N11855 X-0.9324 Y2.9747
N11860 X-0.934 Y2.9804
N11865 X-0.9361 Y2.986
N11870 X-0.9425 Y2.9961
N11875 X-0.9509 Y3.0045
N11880 X-0.961 Y3.0108
N11885 X-0.9723 Y3.0145
N11890 X-0.9842 Y3.0156
N11895 X-0.996 Y3.014
N11900 X-1.0071 Y3.0097
N11905 X-1.0169 Y3.003
N11910 G3 X-1.0183 Y2.9677 Z-0.192 I0.017 J-0.0184
N11915 G1 X-1.016 Y2.9655
N11920 X-1.0135 Y2.9637
N11925 X-0.9696 Y2.9354
N11930 X-0.9671 Y2.934
N11935 X-0.9644 Y2.9329
N11940 X-0.9616 Y2.9321
N11945 G3 X-0.9317 Y2.9509 Z-0.2 I0.0056 J0.0244
N11950 G1 X-0.9273 Y2.9739
N11955 X-0.925 Y2.9835
N11960 X-0.924 Y2.9876
N11965 X-0.9228 Y2.9935
N11970 X-0.9236 Y3.004
N11975 X-0.927 Y3.0139
N11980 X-0.9329 Y3.0226
N11985 X-0.9408 Y3.0295
N11990 X-0.9502 Y3.0342
N11995 X-0.9605 Y3.0362
N12000 X-0.971 Y3.0356
N12005 X-0.981 Y3.0323
N12010 X-0.9897 Y3.0265
N12015 G3 X-1.0007 Y3.0077 Z-0.1955 I0.0254 J-0.0274
N12020 X-1.001 Y2.9907 Z-0.192 I0.0386 J-0.0092
N12025 X-0.9503 Y2.9607 I0.0389 J0.0079
N12030 X-0.924 Y2.9876 Z-0.2 I-0.0118 J0.0379
N12035 G1 X-0.921 Y2.9995
N12040 X-0.9166 Y3.0166
N12045 X-0.9154 Y3.0225
N12050 X-0.9168 Y3.0313
N12055 X-0.9207 Y3.0393
N12060 X-0.9266 Y3.0459
N12065 X-0.9341 Y3.0506
N12070 X-0.9427 Y3.053
N12075 X-0.9516 Y3.0529
N12080 X-0.9601 Y3.0504
N12085 X-0.9676 Y3.0456
N12090 G3 X-0.9756 Y3.0313 I0.0182 J-0.0196
N12095 X-0.9166 Y3.0166 I0.0298 J-0.006
N12100 G1 X-0.9144 Y3.0252
N12105 X-0.9122 Y3.0337
N12110 X-0.9119 Y3.038
N12115 X-0.9122 Y3.0422
N12120 X-0.9127 Y3.0444
N12125 X-0.9133 Y3.0465
N12130 X-0.9142 Y3.0487
N12135 X-0.9153 Y3.0508
N12140 X-0.9164 Y3.0525
N12145 X-0.918 Y3.0545
N12150 X-0.92 Y3.0565
N12155 X-0.9235 Y3.0593
N12160 X-0.925 Y3.0603
N12165 X-0.9271 Y3.0614
N12170 X-0.9293 Y3.0622
N12175 X-0.9314 Y3.0628
N12180 X-0.9335 Y3.0633
N12185 X-0.9378 Y3.0636
N12190 X-0.9421 Y3.0631
N12195 X-0.9442 Y3.0626
N12200 X-0.9464 Y3.0619
N12205 X-0.9485 Y3.061
N12210 X-0.9506 Y3.0598
N12215 X-0.9514 Y3.0593
N12220 X-0.9592 Y3.0529
N12225 X-1.1386 Y2.8981
N12230 X-1.1459 Y2.8912
N12235 X-1.1502 Y2.8863
N12240 X-1.1545 Y2.8807
N12245 X-1.1584 Y2.8745
N12250 X-1.1617 Y2.8684
N12255 X-1.1647 Y2.8614
N12260 X-1.1671 Y2.8543
N12265 X-1.1689 Y2.8472
N12270 X-1.1702 Y2.8393
N12275 X-1.1709 Y2.8316
N12280 Y2.8238
N12285 X-1.1688 Y2.8121
N12290 X-1.1643 Y2.8011
N12295 X-1.1577 Y2.7912
N12300 X-1.1492 Y2.7829
N12305 X-1.1392 Y2.7766
N12310 X-1.128 Y2.7724
N12315 X-1.1163 Y2.7706
N12320 X-1.1044 Y2.7712
N12325 G3 X-1.0845 Y2.7998 Z-0.1921 I-0.0048 J0.0245
N12330 G1 X-1.0846 Y2.8005 Z-0.192
N12335 X-1.0983 Y2.8827
N12340 G3 X-1.1034 Y2.8943 I-0.0247 J-0.0041
N12345 X-1.1386 Y2.8981 Z-0.2 I-0.0195 J-0.0157
N12350 G1 X-1.1858 Y2.8574
N12355 X-1.1901 Y2.8533
N12360 X-1.194 Y2.8487
N12365 X-1.1973 Y2.8437
N12370 X-1.2002 Y2.8385
N12375 X-1.2025 Y2.8329
N12380 X-1.2043 Y2.8272
N12385 X-1.2056 Y2.8213
N12390 X-1.2058 Y2.8095
N12395 X-1.2032 Y2.798
N12400 X-1.1981 Y2.7874
N12405 X-1.1907 Y2.7782
N12410 X-1.1813 Y2.771
N12415 X-1.1706 Y2.7662
N12420 X-1.159 Y2.7639
N12425 X-1.1472 Y2.7644
N12430 G3 X-1.1274 Y2.7937 Z-0.192 I-0.0048 J0.0245
N12435 G1 X-1.1279 Y2.7957
N12440 X-1.1285 Y2.7976
N12445 X-1.1467 Y2.8466
N12450 X-1.1477 Y2.8491
N12455 X-1.1491 Y2.8514
N12460 X-1.1506 Y2.8536
N12465 G3 X-1.1858 Y2.8574 Z-0.2 I-0.0195 J-0.0157
N12470 G1 X-1.2175 Y2.8301
N12475 X-1.2218 Y2.8259
N12480 X-1.2273 Y2.8163
N12485 X-1.2301 Y2.8056
N12490 X-1.2299 Y2.7945
N12495 X-1.2269 Y2.7838
N12500 X-1.2212 Y2.7743
N12505 X-1.2132 Y2.7666
N12510 X-1.2035 Y2.7613
N12515 X-1.1927 Y2.7587
N12520 X-1.1816 Y2.7589
N12525 G3 X-1.1638 Y2.768 Z-0.1959 I-0.007 J0.0357
N12530 X-1.1533 Y2.7837 Z-0.192 I-0.028 J0.03
N12535 X-1.1805 Y2.8375 I-0.0385 J0.0144
N12540 X-1.1918 Y2.8391 Z-0.1943 I-0.0113 J-0.0395
N12545 X-1.2175 Y2.8301 Z-0.2 I0. J-0.0411
N12550 G1 X-1.239 Y2.8116
N12555 X-1.2433 Y2.8074
N12560 X-1.2469 Y2.8026
N12565 X-1.25 Y2.794
N12570 X-1.2506 Y2.7848
N12575 X-1.2487 Y2.7758
N12580 X-1.2443 Y2.7676
N12585 X-1.238 Y2.761
N12590 X-1.23 Y2.7563
N12595 X-1.2211 Y2.754
N12600 X-1.2119 Y2.7541
N12605 G3 X-1.1975 Y2.761 I-0.0061 J0.0314
N12610 X-1.239 Y2.8116 I-0.0209 J0.0251
N12615 G1 X-1.2582 Y2.795
N12620 X-1.2588 Y2.7945
N12625 X-1.261 Y2.7923
N12630 X-1.2628 Y2.7902
N12635 X-1.2643 Y2.7881
N12640 X-1.2654 Y2.7859
N12645 X-1.2667 Y2.7826
N12650 X-1.2674 Y2.78
N12655 X-1.2677 Y2.7774
N12660 Y2.7731
N12665 X-1.267 Y2.7689
N12670 X-1.2667 Y2.7679
N12675 X-1.2652 Y2.7641
N12680 X-1.2642 Y2.7622
N12685 X-1.2629 Y2.7603
N12690 X-1.2609 Y2.7579
N12695 X-1.2582 Y2.7555
N12700 X-1.2552 Y2.7533
N12705 X-1.2522 Y2.7518
N12710 X-1.2496 Y2.7508
N12715 X-1.2475 Y2.7502
N12720 X-1.2454 Y2.7499
N12725 X-1.2411 Y2.7497
N12730 X-1.2326 Y2.7509
N12735 X-1.0565 Y2.7788
N12740 X-1.0537 Y2.7796
N12745 X-1.0509 Y2.7806
N12750 X-1.0485 Y2.7823 Z-0.1998
N12755 X-1.046 Y2.784 Z-0.1993
N12760 X-1.0437 Y2.7856 Z-0.1984
N12765 X-1.0419 Y2.7882 Z-0.1969
N12770 X-1.0402 Y2.7907 Z-0.195
N12775 X-1.0386 Y2.7928 Z-0.1927
N12780 X-1.0379 Y2.7953 Z-0.1897
N12785 X-1.0373 Y2.7972 Z-0.1864
N12790 X-1.0369 Y2.7987 Z-0.1827
N12795 X-1.0367 Y2.7995 Z-0.1789
N12800 X-1.0366 Y2.7998 Z-0.175
N12805 G0 Z0.3
N12810 X-0.9687 Y2.808
N12815 Z-0.125
N12820 G1 Z-0.15 F15.
N12825 Z-0.255
N12830 X-0.9698 Y2.809
N12835 X-0.9713
N12840 X-0.9721 Y2.8078
N12845 X-0.9723 Y2.8063
N12850 X-0.9718 Y2.8049
N12855 X-0.9708 Y2.8037
N12860 X-0.9695 Y2.803
N12865 X-0.968 Y2.8027
N12870 X-0.9665 Y2.8029
N12875 X-0.9651 Y2.8034
N12880 X-0.9628 Y2.8053
N12885 X-0.9616 Y2.8081
N12890 X-0.9618 Y2.8111
N12895 X-0.9631 Y2.8137
N12900 X-0.9652 Y2.8159
N12905 X-0.9679 Y2.8173
N12910 X-0.9709 Y2.8178
N12915 X-0.9738 Y2.8175
N12920 X-0.9794 Y2.8152
N12925 X-0.9832 Y2.8106
N12930 X-0.9846 Y2.8047
N12935 X-0.983 Y2.8001
N12940 X-0.9797 Y2.7964
N12945 X-0.9753 Y2.7942
N12950 X-0.9703 Y2.7939
N12955 X-0.9656 Y2.7954
N12960 X-0.9653 Y2.7956
N12965 X-0.9632 Y2.7971
N12970 X-0.9612 Y2.7988
N12975 X-0.9592 Y2.801
N12980 X-0.9577 Y2.803
N12985 X-0.9563 Y2.8052
N12990 X-0.9553 Y2.8073
N12995 X-0.9548 Y2.8085
N13000 X-0.9544 Y2.8094
N13005 X-0.9532 Y2.8144
N13010 X-0.9531 Y2.8153
N13015 X-0.9537 Y2.8162 Z-0.2547
N13020 X-0.9542 Y2.8169 Z-0.2538
N13025 X-0.9544 Y2.8171 Z-0.2526
N13030 G0 Z0.3
N13035 X-0.9639 Y2.7972
N13040 Z-0.1513
N13045 G1 Z-0.1763 F15.
N13050 Z-0.255
N13055 G3 X-0.9544 Y2.8094 I-0.0191 J0.0246
N13060 G1 X-0.9538 Y2.8116
N13065 X-0.9529 Y2.816
N13070 X-0.9525 Y2.8189
N13075 X-0.9545 Y2.8246
N13080 X-0.9581 Y2.8294
N13085 X-0.9627 Y2.8332
N13090 X-0.9681 Y2.8358
N13095 X-0.974 Y2.8371
N13100 X-0.98 Y2.8372
N13105 X-0.9859 Y2.8361
N13110 X-0.9915 Y2.8339
N13115 X-0.9975 Y2.8286
N13120 X-1.0013 Y2.8214
N13125 X-1.0024 Y2.8135
N13130 X-1.0006 Y2.8056
N13135 X-0.9963 Y2.7988
N13140 X-0.9898 Y2.794
N13145 X-0.9821 Y2.7917
N13150 X-0.9741 Y2.7922
N13155 X-0.972 Y2.7927
N13160 X-0.9677 Y2.7943
N13165 X-0.9656 Y2.7954
N13170 X-0.9631 Y2.7973
N13175 X-0.961 Y2.7996
N13180 X-0.9593 Y2.8023
N13185 X-0.9544 Y2.812
N13190 X-0.9535 Y2.814
N13195 X-0.9529 Y2.816
N13200 X-0.9521 Y2.8201
N13205 X-0.951 Y2.8287
N13210 X-0.9505 Y2.8346
N13215 X-0.9517 Y2.8405
N13220 X-0.9542 Y2.846
N13225 X-0.9578 Y2.8508
N13230 X-0.9621 Y2.8549
N13235 X-0.9671 Y2.8583
N13240 X-0.9725 Y2.8609
N13245 X-0.9782 Y2.8627
N13250 X-0.9841 Y2.8636
N13255 X-0.9901 Y2.8637
N13260 X-0.9961 Y2.863
N13265 X-1.0019 Y2.8615
N13270 X-1.0105 Y2.8567
N13275 X-1.0175 Y2.8498
N13280 X-1.0224 Y2.8413
N13285 X-1.0249 Y2.8318
N13290 Y2.822
N13295 X-1.0223 Y2.8126
N13300 X-1.0172 Y2.8041
N13305 X-1.0101 Y2.7973
N13310 X-1.0015 Y2.7926
N13315 X-0.992 Y2.7903
N13320 X-0.9822 Y2.7907
N13325 X-0.9763 Y2.7916
N13330 X-0.9741 Y2.7922
N13335 G3 X-0.957 Y2.8088 I-0.0068 J0.0241
N13340 G1 X-0.9518 Y2.8254
N13345 X-0.951 Y2.8287
N13350 X-0.9482 Y2.8504
N13355 X-0.9478 Y2.8564
N13360 X-0.9485 Y2.8624
N13365 X-0.9503 Y2.8681
N13370 X-0.953 Y2.8734
N13375 X-0.9565 Y2.8784
N13380 X-0.9605 Y2.8828
N13385 X-0.9651 Y2.8867
N13390 X-0.9701 Y2.89
N13395 X-0.9754 Y2.8927
N13400 X-0.981 Y2.8949
N13405 X-0.9868 Y2.8964
N13410 X-0.9928 Y2.8974
N13415 X-0.9988 Y2.8977
N13420 X-1.0047 Y2.8975
N13425 X-1.0107 Y2.8967
N13430 X-1.0165 Y2.8954
N13435 X-1.0223 Y2.8935
N13440 X-1.0278 Y2.8912
N13445 X-1.0331 Y2.8884
N13450 X-1.0381 Y2.8851
N13455 X-1.0428 Y2.8814
N13460 X-1.0472 Y2.8773
N13465 X-1.0513 Y2.8729
N13470 X-1.055 Y2.8682
N13475 X-1.0584 Y2.8629
N13480 X-1.0613 Y2.8576
N13485 X-1.0637 Y2.8521
N13490 X-1.0658 Y2.846
N13495 X-1.0659 Y2.8455
N13500 X-1.0674 Y2.8337
N13505 X-1.066 Y2.8219
N13510 X-1.0617 Y2.8108
N13515 X-1.0549 Y2.8011
N13520 X-1.0459 Y2.7933
N13525 X-1.0352 Y2.7881
N13530 X-1.0236 Y2.7855
N13535 X-1.0117 Y2.7859
N13540 X-0.9822 Y2.7907
N13545 G3 X-0.9636 Y2.8066 I-0.005 J0.0245
N13550 G1 X-0.9618 Y2.8117
N13555 X-0.9583 Y2.8213
N13560 X-0.9494 Y2.8459
N13565 X-0.9487 Y2.8482
N13570 X-0.9482 Y2.8504
N13575 X-0.9444 Y2.8799
N13580 X-0.944 Y2.8859
N13585 X-0.9447 Y2.8919
N13590 X-0.9462 Y2.8977
N13595 X-0.9485 Y2.9032
N13600 X-0.9515 Y2.9084
N13605 X-0.9549 Y2.9133
N13610 X-0.9589 Y2.9178
N13615 X-0.9633 Y2.9219
N13620 X-0.968 Y2.9257
N13625 X-0.973 Y2.929
N13630 X-0.9784 Y2.9319
N13635 X-0.9842 Y2.9345
N13640 X-0.9905 Y2.9367
N13645 X-0.9972 Y2.9385
N13650 X-1.0042 Y2.9398
N13655 X-1.0115 Y2.9405
N13660 X-1.019 Y2.9407
N13665 X-1.0268 Y2.9402
N13670 X-1.0347 Y2.9391
N13675 X-1.0427 Y2.9372
N13680 X-1.0508 Y2.9347
N13685 X-1.0587 Y2.9315
N13690 X-1.0666 Y2.9276
N13695 X-1.0741 Y2.9231
N13700 X-1.0808 Y2.9182
N13705 X-1.0877 Y2.9124
N13710 X-1.0939 Y2.9062
N13715 X-1.0991 Y2.9
N13720 X-1.1044 Y2.8928
N13725 X-1.1088 Y2.8855
N13730 X-1.1124 Y2.8783
N13735 X-1.1157 Y2.8701
N13740 X-1.1183 Y2.862
N13745 X-1.1201 Y2.8542
N13750 X-1.1213 Y2.8456
N13755 X-1.1218 Y2.8371
N13760 X-1.1217 Y2.8292
N13765 X-1.1194 Y2.8179
N13770 X-1.1149 Y2.8073
N13775 X-1.1083 Y2.7979
N13780 X-1.1 Y2.7899
N13785 X-1.0902 Y2.7838
N13790 X-1.0794 Y2.7799
N13795 X-1.068 Y2.7782
N13800 X-1.0565 Y2.7788
N13805 X-1.0117 Y2.7859
N13810 G3 X-0.9955 Y2.7969 I-0.0048 J0.0245
N13815 G1 X-0.9896 Y2.806
N13820 X-0.9593 Y2.853
N13825 X-0.9481 Y2.8704
N13830 G3 X-0.9444 Y2.8799 I-0.021 J0.0135
N13835 G1 X-0.9433 Y2.8885
N13840 X-0.9419 Y2.897
N13845 X-0.9395 Y2.9102
N13850 X-0.9386 Y2.9162
N13855 Y2.9222
N13860 X-0.9394 Y2.9281
N13865 X-0.9408 Y2.934
N13870 X-0.9428 Y2.9396
N13875 X-0.9454 Y2.945
N13880 X-0.9484 Y2.9502
N13885 X-0.952 Y2.9553
N13890 X-0.9562 Y2.9604
N13895 X-0.9611 Y2.9654
N13900 X-0.9665 Y2.9701
N13905 X-0.9727 Y2.9747
N13910 X-0.9796 Y2.979
N13915 X-0.9871 Y2.9829
N13920 X-0.9896 Y2.984
N13925 X-1.002 Y2.9876
N13930 X-1.0149 Y2.9884
N13935 X-1.0276 Y2.9864
N13940 X-1.0396 Y2.9816
N13945 X-1.0502 Y2.9743
N13950 G3 X-1.0516 Y2.939 Z-0.247 I0.017 J-0.0184
N13955 G1 X-1.0489 Y2.9365
N13960 X-1.0458 Y2.9343
N13965 X-0.9764 Y2.8941
N13970 X-0.973 Y2.8924
N13975 X-0.9693 Y2.8913
N13980 G3 X-0.9395 Y2.9102 Z-0.255 I0.0054 J0.0244
N13985 G1 X-0.9355 Y2.9312
N13990 X-0.9317 Y2.9509
N13995 X-0.9309 Y2.9568
N14000 X-0.9307 Y2.9628
N14005 X-0.9313 Y2.9688
N14010 X-0.9324 Y2.9747
N14015 X-0.934 Y2.9804
N14020 X-0.9361 Y2.986
N14025 X-0.9425 Y2.9961
N14030 X-0.9509 Y3.0045
N14035 X-0.961 Y3.0108
N14040 X-0.9723 Y3.0145
N14045 X-0.9842 Y3.0156
N14050 X-0.996 Y3.014
N14055 X-1.0071 Y3.0097
N14060 X-1.0169 Y3.003
N14065 G3 X-1.0183 Y2.9677 Z-0.247 I0.017 J-0.0184
N14070 G1 X-1.016 Y2.9655
N14075 X-1.0135 Y2.9637
N14080 X-0.9696 Y2.9354
N14085 X-0.9671 Y2.934
N14090 X-0.9644 Y2.9329
N14095 X-0.9616 Y2.9321
N14100 G3 X-0.9317 Y2.9509 Z-0.255 I0.0056 J0.0244
N14105 G1 X-0.9273 Y2.9739
N14110 X-0.925 Y2.9835
N14115 X-0.924 Y2.9876
N14120 X-0.9228 Y2.9935
N14125 X-0.9236 Y3.004
N14130 X-0.927 Y3.0139
N14135 X-0.9329 Y3.0226
N14140 X-0.9408 Y3.0295
N14145 X-0.9502 Y3.0342
N14150 X-0.9605 Y3.0362
N14155 X-0.971 Y3.0356
N14160 X-0.981 Y3.0323
N14165 X-0.9897 Y3.0265
N14170 G3 X-1.0007 Y3.0077 Z-0.2505 I0.0254 J-0.0274
N14175 X-1.001 Y2.9907 Z-0.247 I0.0386 J-0.0092
N14180 X-0.9503 Y2.9607 I0.0389 J0.0079
N14185 X-0.924 Y2.9876 Z-0.255 I-0.0118 J0.0379
N14190 G1 X-0.921 Y2.9995
N14195 X-0.9166 Y3.0166
N14200 X-0.9154 Y3.0225
N14205 X-0.9168 Y3.0313
N14210 X-0.9207 Y3.0393
N14215 X-0.9266 Y3.0459
N14220 X-0.9341 Y3.0506
N14225 X-0.9427 Y3.053
N14230 X-0.9516 Y3.0529
N14235 X-0.9601 Y3.0504
N14240 X-0.9676 Y3.0456
N14245 G3 X-0.9756 Y3.0313 I0.0182 J-0.0196
N14250 X-0.9166 Y3.0166 I0.0298 J-0.006
N14255 G1 X-0.9144 Y3.0252
N14260 X-0.9122 Y3.0337
N14265 X-0.9119 Y3.038
N14270 X-0.9122 Y3.0422
N14275 X-0.9127 Y3.0444
N14280 X-0.9133 Y3.0465
N14285 X-0.9142 Y3.0487
N14290 X-0.9153 Y3.0508
N14295 X-0.9164 Y3.0525
N14300 X-0.918 Y3.0545
N14305 X-0.92 Y3.0565
N14310 X-0.9235 Y3.0593
N14315 X-0.925 Y3.0603
N14320 X-0.9271 Y3.0614
N14325 X-0.9293 Y3.0622
N14330 X-0.9314 Y3.0628
N14335 X-0.9335 Y3.0633
N14340 X-0.9378 Y3.0636
N14345 X-0.9421 Y3.0631
N14350 X-0.9442 Y3.0626
N14355 X-0.9464 Y3.0619
N14360 X-0.9485 Y3.061
N14365 X-0.9506 Y3.0598
N14370 X-0.9514 Y3.0593
N14375 X-0.9592 Y3.0529
N14380 X-1.1386 Y2.8981
N14385 X-1.1459 Y2.8912
N14390 X-1.1502 Y2.8863
N14395 X-1.1545 Y2.8807
N14400 X-1.1584 Y2.8745
N14405 X-1.1617 Y2.8684
N14410 X-1.1647 Y2.8614
N14415 X-1.1671 Y2.8543
N14420 X-1.1689 Y2.8472
N14425 X-1.1702 Y2.8393
N14430 X-1.1709 Y2.8316
N14435 Y2.8238
N14440 X-1.1688 Y2.8121
N14445 X-1.1643 Y2.8011
N14450 X-1.1577 Y2.7912
N14455 X-1.1492 Y2.7829
N14460 X-1.1392 Y2.7766
N14465 X-1.128 Y2.7724
N14470 X-1.1163 Y2.7706
N14475 X-1.1044 Y2.7712
N14480 G3 X-1.0845 Y2.7998 Z-0.2471 I-0.0048 J0.0245
N14485 G1 X-1.0846 Y2.8005 Z-0.247
N14490 X-1.0983 Y2.8827
N14495 G3 X-1.1034 Y2.8943 I-0.0247 J-0.0041
N14500 X-1.1386 Y2.8981 Z-0.255 I-0.0195 J-0.0157
N14505 G1 X-1.1858 Y2.8574
N14510 X-1.1901 Y2.8533
N14515 X-1.194 Y2.8487
N14520 X-1.1973 Y2.8437
N14525 X-1.2002 Y2.8385
N14530 X-1.2025 Y2.8329
N14535 X-1.2043 Y2.8272
N14540 X-1.2056 Y2.8213
N14545 X-1.2058 Y2.8095
N14550 X-1.2032 Y2.798
N14555 X-1.1981 Y2.7874
N14560 X-1.1907 Y2.7782
N14565 X-1.1813 Y2.771
N14570 X-1.1706 Y2.7662
N14575 X-1.159 Y2.7639
N14580 X-1.1472 Y2.7644
N14585 G3 X-1.1274 Y2.7937 Z-0.247 I-0.0048 J0.0245
N14590 G1 X-1.1279 Y2.7957
N14595 X-1.1285 Y2.7976
N14600 X-1.1467 Y2.8466
N14605 X-1.1477 Y2.8491
N14610 X-1.1491 Y2.8514
N14615 X-1.1506 Y2.8536
N14620 G3 X-1.1858 Y2.8574 Z-0.255 I-0.0195 J-0.0157
N14625 G1 X-1.2175 Y2.8301
N14630 X-1.2218 Y2.8259
N14635 X-1.2273 Y2.8163
N14640 X-1.2301 Y2.8056
N14645 X-1.2299 Y2.7945
N14650 X-1.2269 Y2.7838
N14655 X-1.2212 Y2.7743
N14660 X-1.2132 Y2.7666
N14665 X-1.2035 Y2.7613
N14670 X-1.1927 Y2.7587
N14675 X-1.1816 Y2.7589
N14680 G3 X-1.1638 Y2.768 Z-0.2509 I-0.007 J0.0357
N14685 X-1.1533 Y2.7837 Z-0.247 I-0.028 J0.03
N14690 X-1.1805 Y2.8375 I-0.0385 J0.0144
N14695 X-1.1918 Y2.8391 Z-0.2493 I-0.0113 J-0.0395
N14700 X-1.2175 Y2.8301 Z-0.255 I0. J-0.0411
N14705 G1 X-1.239 Y2.8116
N14710 X-1.2433 Y2.8074
N14715 X-1.2469 Y2.8026
N14720 X-1.25 Y2.794
N14725 X-1.2506 Y2.7848
N14730 X-1.2487 Y2.7758
N14735 X-1.2443 Y2.7676
N14740 X-1.238 Y2.761
N14745 X-1.23 Y2.7563
N14750 X-1.2211 Y2.754
N14755 X-1.2119 Y2.7541
N14760 G3 X-1.1975 Y2.761 I-0.0061 J0.0314
N14765 X-1.239 Y2.8116 I-0.0209 J0.0251
N14770 G1 X-1.2582 Y2.795
N14775 X-1.2588 Y2.7945
N14780 X-1.261 Y2.7923
N14785 X-1.2628 Y2.7902
N14790 X-1.2643 Y2.7881
N14795 X-1.2654 Y2.7859
N14800 X-1.2667 Y2.7826
N14805 X-1.2674 Y2.78
N14810 X-1.2677 Y2.7774
N14815 Y2.7731
N14820 X-1.267 Y2.7689
N14825 X-1.2667 Y2.7679
N14830 X-1.2652 Y2.7641
N14835 X-1.2642 Y2.7622
N14840 X-1.2629 Y2.7603
N14845 X-1.2609 Y2.7579
N14850 X-1.2582 Y2.7555
N14855 X-1.2552 Y2.7533
N14860 X-1.2522 Y2.7518
N14865 X-1.2496 Y2.7508
N14870 X-1.2475 Y2.7502
N14875 X-1.2454 Y2.7499
N14880 X-1.2411 Y2.7497
N14885 X-1.2326 Y2.7509
N14890 X-1.0565 Y2.7788
N14895 X-1.0537 Y2.7796
N14900 X-1.0509 Y2.7806
N14905 X-1.0485 Y2.7823 Z-0.2548
N14910 X-1.046 Y2.784 Z-0.2543
N14915 X-1.0437 Y2.7856 Z-0.2534
N14920 X-1.0419 Y2.7882 Z-0.2519
N14925 X-1.0402 Y2.7907 Z-0.25
N14930 X-1.0386 Y2.7928 Z-0.2477
N14935 X-1.0379 Y2.7953 Z-0.2447
N14940 X-1.0373 Y2.7972 Z-0.2414
N14945 X-1.0369 Y2.7987 Z-0.2377
N14950 X-1.0367 Y2.7995 Z-0.2339
N14955 X-1.0366 Y2.7998 Z-0.23
N14960 G0 Z0.3
N14965 X0.5556 Y4.0689
N14970 Z0.075
N14975 G1 Z0.05 F15.
N14980 Z-0.1
N14985 X0.5547 Y4.0701
N14990 X0.5532 Y4.0704
N14995 X0.5521 Y4.0694
N15000 X0.5517 Y4.068
N15005 X0.5519 Y4.0665
N15010 X0.5526 Y4.0652
N15015 X0.5538 Y4.0642
N15020 X0.5552 Y4.0636
N15025 X0.5567 Y4.0635
N15030 X0.5581 Y4.0638
N15035 X0.5608 Y4.0651
N15040 X0.5625 Y4.0676
N15045 X0.5629 Y4.0706
N15050 X0.5621 Y4.0735
N15055 X0.5605 Y4.076
N15060 X0.5582 Y4.0779
N15065 X0.5554 Y4.079
N15070 X0.5524 Y4.0792
N15075 X0.5465 Y4.0781
N15080 X0.5418 Y4.0743
N15085 X0.5393 Y4.0689
N15090 X0.5401 Y4.0636
N15095 X0.5431 Y4.0591
N15100 X0.5476 Y4.0562
N15105 X0.553 Y4.0555
N15110 X0.5552 Y4.056
N15115 X0.5573 Y4.0567
N15120 X0.5594 Y4.0577
N15125 X0.5616 Y4.0589
N15130 X0.5641 Y4.0608
N15135 X0.5666 Y4.0632
N15140 X0.5683 Y4.0653
N15145 X0.5692 Y4.0665
N15150 X0.5698 Y4.0675
N15155 X0.571 Y4.0697
N15160 Y4.0699
N15165 X0.5706 Y4.0709 Z-0.0996
N15170 X0.5703 Y4.0715 Z-0.0987
N15175 X0.5702 Y4.0718 Z-0.0976
N15180 G0 Z0.3
N15185 X0.5578 Y4.0577
N15190 Z0.0037
N15195 G1 Z-0.0213 F15.
N15200 Z-0.1
N15205 G3 X0.5698 Y4.0675 I-0.013 J0.0283
N15210 G1 X0.5701 Y4.068
N15215 X0.5715 Y4.0707
N15220 X0.5721 Y4.072
N15225 X0.5739 Y4.0777
N15230 X0.5726 Y4.0836
N15235 X0.5698 Y4.0889
N15240 X0.5657 Y4.0933
N15245 X0.5608 Y4.0967
N15250 X0.5552 Y4.099
N15255 X0.5493 Y4.1001
N15260 X0.5433 Y4.0999
N15265 X0.5375 Y4.0988
N15270 X0.5307 Y4.0945
N15275 X0.5258 Y4.0882
N15280 X0.5234 Y4.0806
N15285 X0.5238 Y4.0726
N15290 X0.527 Y4.0652
N15295 X0.5325 Y4.0594
N15300 X0.5396 Y4.0559
N15305 X0.5476 Y4.0551
N15310 G3 X0.56 Y4.06 I-0.0027 J0.0249
N15315 G1 X0.5652 Y4.064
N15320 G3 X0.5721 Y4.072 I-0.0151 J0.0199
N15325 G1 X0.5736 Y4.076
N15330 X0.577 Y4.0868
N15335 X0.5785 Y4.0926
N15340 X0.5784 Y4.0986
N15345 X0.5768 Y4.1044
N15350 X0.5741 Y4.1097
N15355 X0.5705 Y4.1145
N15360 X0.5662 Y4.1188
N15365 X0.5613 Y4.1222
N15370 X0.556 Y4.125
N15375 X0.5503 Y4.1269
N15380 X0.5444 Y4.1281
N15385 X0.5384 Y4.1284
N15390 X0.5324 Y4.128
N15395 X0.5232 Y4.1248
N15400 X0.5151 Y4.1194
N15405 X0.5088 Y4.112
N15410 X0.5046 Y4.1032
N15415 X0.5029 Y4.0936
N15420 X0.5037 Y4.0839
N15425 X0.507 Y4.0747
N15430 X0.5127 Y4.0668
N15435 X0.5202 Y4.0606
N15440 X0.5291 Y4.0565
N15445 X0.5387 Y4.055
N15450 X0.5445 Y4.0548
N15455 X0.5476 Y4.0551
N15460 G3 X0.5667 Y4.0677 I-0.0027 J0.0249
N15465 G1 X0.5753 Y4.083
N15470 X0.5762 Y4.0848
N15475 X0.577 Y4.0868
N15480 X0.5839 Y4.1084
N15485 X0.5854 Y4.1142
N15490 X0.5856 Y4.1202
N15495 X0.5846 Y4.1262
N15500 X0.5828 Y4.1319
N15505 X0.5801 Y4.1373
N15510 X0.5768 Y4.1423
N15515 X0.573 Y4.1469
N15520 X0.5686 Y4.151
N15525 X0.5638 Y4.1545
N15530 X0.5586 Y4.1576
N15535 X0.5531 Y4.1601
N15540 X0.5475 Y4.162
N15545 X0.5416 Y4.1634
N15550 X0.5357 Y4.1642
N15555 X0.5297 Y4.1644
N15560 X0.5237 Y4.1641
N15565 X0.5177 Y4.1633
N15570 X0.5119 Y4.1619
N15575 X0.5062 Y4.16
N15580 X0.5007 Y4.1576
N15585 X0.4954 Y4.1548
N15590 X0.4903 Y4.1515
N15595 X0.4855 Y4.1479
N15600 X0.4811 Y4.1438
N15605 X0.4769 Y4.1393
N15610 X0.4731 Y4.1346
N15615 X0.4698 Y4.1296
N15620 X0.4656 Y4.1194
N15625 X0.4637 Y4.1085
N15630 X0.4643 Y4.0975
N15635 X0.4674 Y4.0868
N15640 X0.4728 Y4.0772
N15645 X0.4801 Y4.0689
N15650 X0.4891 Y4.0625
N15655 X0.4993 Y4.0583
N15660 X0.5102 Y4.0565
N15665 X0.5359 Y4.0551
N15670 X0.5387 Y4.055
N15675 G3 X0.56 Y4.0672 I-0.0002 J0.025
N15680 G1 X0.5627 Y4.0717
N15685 X0.5685 Y4.0816
N15690 X0.5819 Y4.1041
N15695 X0.583 Y4.1062
N15700 X0.5839 Y4.1084
N15705 X0.5926 Y4.1358
N15710 X0.5942 Y4.1416
N15715 X0.5946 Y4.1476
N15720 X0.5941 Y4.1536
N15725 X0.5928 Y4.1594
N15730 X0.5909 Y4.1651
N15735 X0.5884 Y4.1706
N15740 X0.5853 Y4.1757
N15745 X0.5818 Y4.1806
N15750 X0.5778 Y4.1851
N15755 X0.5735 Y4.1892
N15760 X0.5688 Y4.1931
N15765 X0.5635 Y4.1967
N15770 X0.5577 Y4.2001
N15775 X0.5514 Y4.2031
N15780 X0.5448 Y4.2056
N15785 X0.5378 Y4.2076
N15790 X0.5304 Y4.2091
N15795 X0.5226 Y4.2101
N15800 X0.5146 Y4.2104
N15805 X0.5064 Y4.2101
N15810 X0.498 Y4.2091
N15815 X0.4896 Y4.2074
N15820 X0.4814 Y4.2051
N15825 X0.4738 Y4.2022
N15830 X0.4658 Y4.1985
N15835 X0.4586 Y4.1943
N15840 X0.4518 Y4.1897
N15845 X0.445 Y4.1841
N15850 X0.4391 Y4.1785
N15855 X0.4335 Y4.1723
N15860 X0.4283 Y4.1654
N15865 X0.4239 Y4.1586
N15870 X0.4199 Y4.1511
N15875 X0.4166 Y4.1433
N15880 X0.414 Y4.1357
N15885 X0.4119 Y4.1273
N15890 X0.4105 Y4.1191
N15895 X0.4109 Y4.1064
N15900 X0.4141 Y4.0941
N15905 X0.4201 Y4.0829
N15910 X0.4284 Y4.0734
N15915 X0.4387 Y4.066
N15920 X0.4504 Y4.0611
N15925 X0.4629 Y4.059
N15930 X0.4761 Y4.0584
N15935 X0.5102 Y4.0565
N15940 G3 X0.5291 Y4.0645 I0.0005 J0.025
N15945 G1 X0.5358 Y4.0717
N15950 X0.5733 Y4.112
N15955 X0.5874 Y4.1272
N15960 G3 X0.5926 Y4.1358 I-0.0183 J0.017
N15965 G1 X0.603 Y4.1683
N15970 X0.6045 Y4.1741
N15975 X0.6053 Y4.18
N15980 Y4.186
N15985 X0.6046 Y4.192
N15990 X0.6033 Y4.1978
N15995 X0.6015 Y4.2035
N16000 X0.5992 Y4.2092
N16005 X0.5962 Y4.2148
N16010 X0.5928 Y4.2204
N16015 X0.5885 Y4.2262
N16020 X0.5836 Y4.2319
N16025 X0.578 Y4.2373
N16030 X0.5717 Y4.2426
N16035 X0.5647 Y4.2475
N16040 X0.5569 Y4.2521
N16045 X0.5485 Y4.2563
N16050 X0.5395 Y4.2598
N16055 X0.53 Y4.2626
N16060 X0.5198 Y4.2648
N16065 X0.5092 Y4.2663
N16070 X0.4982 Y4.2668
N16075 X0.487 Y4.2665
N16080 X0.4756 Y4.2653
N16085 X0.4641 Y4.2631
N16090 X0.4527 Y4.2599
N16095 X0.4413 Y4.2558
N16100 X0.4369 Y4.2537
N16105 X0.432 Y4.2512
N16110 X0.4274 Y4.2483
N16115 X0.4231 Y4.2449
N16120 X0.3992 Y4.2243
N16125 X0.3872 Y4.2128
N16130 X0.3794 Y4.2041
N16135 X0.3728 Y4.1954
N16140 X0.3665 Y4.1856
N16145 X0.3617 Y4.1764
N16150 X0.3573 Y4.1664
N16155 X0.3539 Y4.1563
N16160 X0.3515 Y4.1467
N16165 X0.3497 Y4.1361
N16170 X0.3489 Y4.1262
N16175 X0.3488 Y4.1165
N16180 X0.3491 Y4.113
N16185 X0.3514 Y4.1006
N16190 X0.3563 Y4.089
N16195 X0.3636 Y4.0787
N16200 X0.373 Y4.0702
N16205 X0.3839 Y4.0639
N16210 X0.396 Y4.0601
N16215 X0.4085 Y4.059
N16220 G3 X0.4321 Y4.0824 Z-0.0926 I-0.0014 J0.025
N16225 G1 X0.4323 Y4.0854 Z-0.092
N16230 X0.4398 Y4.2032
N16235 G3 X0.4344 Y4.2205 I-0.0249 J0.0016
N16240 X0.3992 Y4.2243 Z-0.1 I-0.0195 J-0.0157
N16245 G1 X0.3309 Y4.1654
N16250 X0.3266 Y4.1612
N16255 X0.3225 Y4.1566
N16260 X0.3189 Y4.1517
N16265 X0.3157 Y4.1467
N16270 X0.3127 Y4.1408
N16275 X0.3101 Y4.1346
N16280 X0.3081 Y4.1286
N16285 X0.3065 Y4.1217
N16290 X0.3054 Y4.1146
N16295 X0.306 Y4.102
N16300 X0.3095 Y4.0898
N16305 X0.3159 Y4.0789
N16310 X0.3246 Y4.0698
N16315 X0.3353 Y4.063
N16320 X0.3473 Y4.059
N16325 X0.3599 Y4.0579
N16330 G3 X0.3831 Y4.0846 Z-0.092 I-0.0017 J0.0249
N16335 G1 X0.3827 Y4.0874
N16340 X0.3711 Y4.1504
N16345 G3 X0.366 Y4.1615 I-0.0246 J-0.0045
N16350 X0.3309 Y4.1654 Z-0.1 I-0.0195 J-0.0157
N16355 G1 X0.292 Y4.1318
N16360 X0.2876 Y4.1277
N16365 X0.2839 Y4.123
N16370 X0.2795 Y4.113
N16375 X0.2776 Y4.1024
N16380 X0.2784 Y4.0915
N16385 X0.2818 Y4.0812
N16390 X0.2876 Y4.0721
N16395 X0.2954 Y4.0646
N16400 X0.3049 Y4.0592
N16405 X0.3153 Y4.0563
N16410 X0.3262 Y4.0561
N16415 G3 X0.3476 Y4.0659 Z-0.0951 I-0.0054 J0.0401
N16420 X0.3571 Y4.0778 Z-0.092 I-0.0286 J0.0323
N16425 X0.329 Y4.1401 I-0.0381 J0.0203
N16430 X0.292 Y4.1318 Z-0.1 I-0.01 J-0.042
N16435 G1 X0.2688 Y4.1118
N16440 X0.2644 Y4.1077
N16445 X0.2608 Y4.1029
N16450 X0.2576 Y4.0943
N16455 X0.2568 Y4.0852
N16460 X0.2585 Y4.0761
N16465 X0.2625 Y4.0679
N16470 X0.2686 Y4.061
N16475 X0.2763 Y4.056
N16480 X0.285 Y4.0532
N16485 X0.2942 Y4.0529
N16490 G3 X0.3109 Y4.0602 I-0.0044 J0.0327
N16495 X0.2688 Y4.1118 I-0.0213 J0.0256
N16500 G1 X0.254 Y4.0991
N16505 X0.2486 Y4.0943
N16510 X0.2473 Y4.0931
N16515 X0.2455 Y4.091
N16520 X0.2434 Y4.0878
N16525 X0.2419 Y4.0845
N16530 X0.2412 Y4.0824
N16535 X0.2407 Y4.0803
N16540 X0.2403 Y4.076
N16545 X0.2406 Y4.0717
N16550 X0.241 Y4.0696
N16555 X0.2417 Y4.0675
N16560 X0.2432 Y4.064
N16565 X0.2455 Y4.0605
N16570 X0.2468 Y4.0589
N16575 X0.2504 Y4.0556
N16580 X0.254 Y4.0532
N16585 X0.2561 Y4.0522
N16590 X0.2583 Y4.0514
N16595 X0.2604 Y4.0508
N16600 X0.2625 Y4.0504
N16605 X0.263
N16610 X0.2659 Y4.0502
N16615 X0.2687 Y4.0504
N16620 X0.3309 Y4.0565
N16625 X0.3394 Y4.0571
N16630 X0.3565 Y4.0578
N16635 X0.3651 Y4.0581
N16640 X0.4249 Y4.0594
N16645 X0.442 Y4.0597
N16650 X0.4505 Y4.0596
N16655 X0.4629 Y4.059
N16660 G3 X0.4789 Y4.0645 Z-0.0965 I0.0004 J0.025
N16665 G1 X0.4891 Y4.0727 Z-0.0938
N16670 X0.4961 Y4.0782 Z-0.092
N16675 X0.5752 Y4.1413
N16680 X0.5822 Y4.1469 Z-0.0938
N16685 X0.595 Y4.1571 Z-0.0972
N16690 G3 X0.603 Y4.1683 Z-0.1 I-0.0156 J0.0195
N16695 G1 X0.6159 Y4.2089
N16700 X0.6174 Y4.2147
N16705 X0.6183 Y4.2206
N16710 X0.6185 Y4.2266
N16715 X0.6181 Y4.2326
N16720 X0.6172 Y4.2387
N16725 X0.6157 Y4.245
N16730 X0.6136 Y4.2515
N16735 X0.6107 Y4.2585
N16740 X0.6071 Y4.2655
N16745 X0.6028 Y4.2725
N16750 X0.5975 Y4.2798
N16755 X0.5913 Y4.2869
N16760 X0.5843 Y4.2938
N16765 X0.5764 Y4.3004
N16770 X0.5673 Y4.3068
N16775 X0.5575 Y4.3127
N16780 X0.5566 Y4.3132
N16785 X0.546 Y4.3171
N16790 X0.5348 Y4.319
N16795 X0.5234 Y4.3186
N16800 X0.5124 Y4.3161
N16805 X0.502 Y4.3115
N16810 X0.4928 Y4.305
N16815 X0.4231 Y4.2449
N16820 G3 X0.4217 Y4.2096 Z-0.092 I0.017 J-0.0184
N16825 X0.4386 Y4.2016 I0.0184 J0.017
N16830 G1 X0.5838 Y4.1927
N16835 X0.5909 Y4.1923 Z-0.0934
N16840 G3 X0.6159 Y4.2089 Z-0.1 I0.0015 J0.025
N16845 G1 X0.6308 Y4.2554
N16850 X0.6323 Y4.2612
N16855 X0.6333 Y4.2671
N16860 X0.6337 Y4.2731
N16865 X0.6336 Y4.2793
N16870 X0.633 Y4.2861
N16875 X0.6317 Y4.2931
N16880 X0.6298 Y4.3008
N16885 X0.6273 Y4.3079
N16890 X0.624 Y4.3153
N16895 X0.6201 Y4.3225
N16900 X0.6159 Y4.3291
N16905 X0.6106 Y4.3359
N16910 X0.6015 Y4.3439
N16915 X0.5909 Y4.3497
N16920 X0.5793 Y4.3531
N16925 X0.5672 Y4.3538
N16930 X0.5553 Y4.3519
N16935 X0.5441 Y4.3474
N16940 X0.5341 Y4.3406
N16945 G3 X0.5327 Y4.3053 Z-0.092 I0.017 J-0.0184
N16950 G1 X0.533 Y4.3049
N16955 X0.5892 Y4.2465
N16960 G3 X0.5988 Y4.2403 I0.018 J0.0173
N16965 X0.6308 Y4.2554 Z-0.1 I0.0084 J0.0235
N16970 G1 X0.647 Y4.3064
N16975 X0.6485 Y4.3122
N16980 X0.6496 Y4.3181
N16985 X0.65 Y4.3241
N16990 X0.6499 Y4.3301
N16995 X0.6491 Y4.336
N17000 X0.6479 Y4.3419
N17005 X0.6461 Y4.3477
N17010 X0.6438 Y4.3534
N17015 X0.6376 Y4.3628
N17020 X0.6295 Y4.3706
N17025 X0.6197 Y4.3764
N17030 X0.609 Y4.3798
N17035 X0.5977 Y4.3808
N17040 X0.5866 Y4.3792
N17045 X0.576 Y4.3751
N17050 X0.5667 Y4.3687
N17055 G3 X0.5653 Y4.3334 Z-0.092 I0.017 J-0.0184
N17060 G1 X0.567 Y4.3317
N17065 X0.6068 Y4.2962
N17070 X0.6093 Y4.2942
N17075 X0.6121 Y4.2925
N17080 X0.6151 Y4.2913
N17085 G3 X0.647 Y4.3064 Z-0.1 I0.0084 J0.0235
N17090 G1 X0.6607 Y4.3494
N17095 X0.6622 Y4.3552
N17100 X0.6628 Y4.3612
N17105 X0.661 Y4.3715
N17110 X0.6568 Y4.3811
N17115 X0.6503 Y4.3893
N17120 X0.642 Y4.3957
N17125 X0.6323 Y4.3999
N17130 X0.622 Y4.4015
N17135 X0.6115 Y4.4006
N17140 X0.6016 Y4.3971
N17145 X0.5929 Y4.3913
N17150 G3 X0.5825 Y4.3744 Z-0.0959 I0.0249 J-0.0269
N17155 X0.5817 Y4.3554 Z-0.092 I0.0395 J-0.0112
N17160 X0.6331 Y4.3237 I0.0403 J0.0078
N17165 X0.6607 Y4.3494 Z-0.1 I-0.011 J0.0396
N17170 G1 X0.6697 Y4.3776
N17175 X0.6712 Y4.3834
N17180 X0.6717 Y4.3894
N17185 X0.6695 Y4.3983
N17190 X0.665 Y4.4062
N17195 X0.6586 Y4.4127
N17200 X0.6506 Y4.4172
N17205 X0.6417 Y4.4194
N17210 X0.6326 Y4.4191
N17215 X0.6239 Y4.4164
N17220 X0.6162 Y4.4114
N17225 G3 X0.6078 Y4.3981 I0.0204 J-0.0221
N17230 X0.6697 Y4.3776 I0.0312 J-0.0095
N17235 G1 X0.677 Y4.4007
N17240 X0.6774 Y4.4019
N17245 X0.6779 Y4.4036
N17250 X0.6781 Y4.4049
N17255 X0.6783 Y4.4062
N17260 X0.6785 Y4.4075
N17265 X0.6784 Y4.4091
N17270 X0.6777 Y4.4107
N17275 X0.6767 Y4.4119
N17280 X0.6753 Y4.4128
N17285 X0.6717 Y4.4143 Z-0.0997
N17290 X0.6682 Y4.4158 Z-0.0988
N17295 X0.6648 Y4.4172 Z-0.0973
N17300 X0.6618 Y4.4185 Z-0.0952
N17305 X0.659 Y4.4197 Z-0.0927
N17310 X0.6567 Y4.4207 Z-0.0897
N17315 X0.6548 Y4.4215 Z-0.0863
N17320 X0.6534 Y4.4221 Z-0.0827
N17325 X0.6526 Y4.4225 Z-0.0789
N17330 X0.6523 Y4.4226 Z-0.075
N17335 G0 Z0.3
N17340 X0.6435 Y4.36
N17345 Z-0.05
N17350 G1 Z-0.075 F15.
N17355 X0.6438 Y4.3602 Z-0.0789
N17360 X0.6444 Y4.3608 Z-0.0827
N17365 X0.6455 Y4.3619 Z-0.0863
N17370 X0.647 Y4.3633 Z-0.0897
N17375 X0.6488 Y4.3651 Z-0.0927
N17380 X0.651 Y4.3671 Z-0.0952
N17385 X0.6534 Y4.3694 Z-0.0973
N17390 X0.656 Y4.372 Z-0.0988
N17395 X0.6587 Y4.3746 Z-0.0997
N17400 X0.6616 Y4.3773 Z-0.1
N17405 G3 X0.6779 Y4.4036 I-0.0432 J0.0449
N17410 G1 X0.6782 Y4.4049
N17415 X0.6787 Y4.4092
N17420 X0.6785 Y4.4115
N17425 X0.6784 Y4.4135
N17430 X0.678 Y4.4156
N17435 X0.6773 Y4.4177
N17440 X0.6765 Y4.4198
N17445 X0.6755 Y4.4219
N17450 X0.6742 Y4.4239
N17455 X0.6726 Y4.426
N17460 X0.6723 Y4.4263
N17465 X0.6703 Y4.4284
N17470 X0.6682 Y4.4301
N17475 X0.6662 Y4.4315
N17480 X0.6641 Y4.4327
N17485 X0.6608 Y4.434
N17490 X0.6575 Y4.4348
N17495 X0.6555 Y4.4351
N17500 X0.6522 Y4.4352
N17505 X0.6488 Y4.4348
N17510 X0.647 Y4.4345
N17515 X0.6449 Y4.4338
N17520 X0.6427 Y4.433
N17525 X0.6406 Y4.4319
N17530 X0.6385 Y4.4305
N17535 X0.6335 Y4.4263
N17540 X0.4928 Y4.305
N17545 X0.4907 Y4.3028
N17550 X0.4889 Y4.3005
N17555 X0.4877 Y4.2977 Z-0.0998
N17560 X0.4866 Y4.295 Z-0.0993
N17565 X0.4854 Y4.2924 Z-0.0984
N17570 X0.4851 Y4.2894 Z-0.097
N17575 X0.4848 Y4.2866 Z-0.0952
N17580 X0.4852 Y4.2838 Z-0.0928
N17585 X0.4857 Y4.2814 Z-0.09
N17590 X0.486 Y4.2794 Z-0.0869
N17595 X0.4863 Y4.278 Z-0.0835
N17600 X0.4866 Y4.2772 Z-0.0807
N17605 X0.4868 Y4.2767 Z-0.0779
N17610 Y4.2766 Z-0.075
N17615 G0 Z0.3
N17620 X0.5556 Y4.0689
N17625 Z-0.025
N17630 G1 Z-0.05 F15.
N17635 Z-0.2
N17640 X0.5547 Y4.0701
N17645 X0.5532 Y4.0704
N17650 X0.5521 Y4.0694
N17655 X0.5517 Y4.068
N17660 X0.5519 Y4.0665
N17665 X0.5526 Y4.0652
N17670 X0.5538 Y4.0642
N17675 X0.5552 Y4.0636
N17680 X0.5567 Y4.0635
N17685 X0.5581 Y4.0638
N17690 X0.5608 Y4.0651
N17695 X0.5625 Y4.0676
N17700 X0.5629 Y4.0706
N17705 X0.5621 Y4.0735
N17710 X0.5605 Y4.076
N17715 X0.5582 Y4.0779
N17720 X0.5554 Y4.079
N17725 X0.5524 Y4.0792
N17730 X0.5465 Y4.0781
N17735 X0.5418 Y4.0743
N17740 X0.5393 Y4.0689
N17745 X0.5401 Y4.0636
N17750 X0.5431 Y4.0591
N17755 X0.5476 Y4.0562
N17760 X0.553 Y4.0555
N17765 X0.5552 Y4.056
N17770 X0.5573 Y4.0567
N17775 X0.5594 Y4.0577
N17780 X0.5616 Y4.0589
N17785 X0.5641 Y4.0608
N17790 X0.5666 Y4.0632
N17795 X0.5683 Y4.0653
N17800 X0.5692 Y4.0665
N17805 X0.5698 Y4.0675
N17810 X0.571 Y4.0697
N17815 Y4.0699
N17820 X0.5706 Y4.0709 Z-0.1996
N17825 X0.5703 Y4.0715 Z-0.1987
N17830 X0.5702 Y4.0718 Z-0.1976
N17835 G0 Z0.3
N17840 X0.5578 Y4.0577
N17845 Z-0.0963
N17850 G1 Z-0.1213 F15.
N17855 Z-0.2
N17860 G3 X0.5698 Y4.0675 I-0.013 J0.0283
N17865 G1 X0.5701 Y4.068
N17870 X0.5715 Y4.0707
N17875 X0.5721 Y4.072
N17880 X0.5739 Y4.0777
N17885 X0.5726 Y4.0836
N17890 X0.5698 Y4.0889
N17895 X0.5657 Y4.0933
N17900 X0.5608 Y4.0967
N17905 X0.5552 Y4.099
N17910 X0.5493 Y4.1001
N17915 X0.5433 Y4.0999
N17920 X0.5375 Y4.0988
N17925 X0.5307 Y4.0945
N17930 X0.5258 Y4.0882
N17935 X0.5234 Y4.0806
N17940 X0.5238 Y4.0726
N17945 X0.527 Y4.0652
N17950 X0.5325 Y4.0594
N17955 X0.5396 Y4.0559
N17960 X0.5476 Y4.0551
N17965 G3 X0.56 Y4.06 I-0.0027 J0.0249
N17970 G1 X0.5652 Y4.064
N17975 G3 X0.5721 Y4.072 I-0.0151 J0.0199
N17980 G1 X0.5736 Y4.076
N17985 X0.577 Y4.0868
N17990 X0.5785 Y4.0926
N17995 X0.5784 Y4.0986
N18000 X0.5768 Y4.1044
N18005 X0.5741 Y4.1097
N18010 X0.5705 Y4.1145
N18015 X0.5662 Y4.1188
N18020 X0.5613 Y4.1222
N18025 X0.556 Y4.125
N18030 X0.5503 Y4.1269
N18035 X0.5444 Y4.1281
N18040 X0.5384 Y4.1284
N18045 X0.5324 Y4.128
N18050 X0.5232 Y4.1248
N18055 X0.5151 Y4.1194
N18060 X0.5088 Y4.112
N18065 X0.5046 Y4.1032
N18070 X0.5029 Y4.0936
N18075 X0.5037 Y4.0839
N18080 X0.507 Y4.0747
N18085 X0.5127 Y4.0668
N18090 X0.5202 Y4.0606
N18095 X0.5291 Y4.0565
N18100 X0.5387 Y4.055
N18105 X0.5445 Y4.0548
N18110 X0.5476 Y4.0551
N18115 G3 X0.5667 Y4.0677 I-0.0027 J0.0249
N18120 G1 X0.5753 Y4.083
N18125 X0.5762 Y4.0848
N18130 X0.577 Y4.0868
N18135 X0.5839 Y4.1084
N18140 X0.5854 Y4.1142
N18145 X0.5856 Y4.1202
N18150 X0.5846 Y4.1262
N18155 X0.5828 Y4.1319
N18160 X0.5801 Y4.1373
N18165 X0.5768 Y4.1423
N18170 X0.573 Y4.1469
N18175 X0.5686 Y4.151
N18180 X0.5638 Y4.1545
N18185 X0.5586 Y4.1576
N18190 X0.5531 Y4.1601
N18195 X0.5475 Y4.162
N18200 X0.5416 Y4.1634
N18205 X0.5357 Y4.1642
N18210 X0.5297 Y4.1644
N18215 X0.5237 Y4.1641
N18220 X0.5177 Y4.1633
N18225 X0.5119 Y4.1619
N18230 X0.5062 Y4.16
N18235 X0.5007 Y4.1576
N18240 X0.4954 Y4.1548
N18245 X0.4903 Y4.1515
N18250 X0.4855 Y4.1479
N18255 X0.4811 Y4.1438
N18260 X0.4769 Y4.1393
N18265 X0.4731 Y4.1346
N18270 X0.4698 Y4.1296
N18275 X0.4656 Y4.1194
N18280 X0.4637 Y4.1085
N18285 X0.4643 Y4.0975
N18290 X0.4674 Y4.0868
N18295 X0.4728 Y4.0772
N18300 X0.4801 Y4.0689
N18305 X0.4891 Y4.0625
N18310 X0.4993 Y4.0583
N18315 X0.5102 Y4.0565
N18320 X0.5359 Y4.0551
N18325 X0.5387 Y4.055
N18330 G3 X0.56 Y4.0672 I-0.0002 J0.025
N18335 G1 X0.5627 Y4.0717
N18340 X0.5685 Y4.0816
N18345 X0.5819 Y4.1041
N18350 X0.583 Y4.1062
N18355 X0.5839 Y4.1084
N18360 X0.5926 Y4.1358
N18365 X0.5942 Y4.1416
N18370 X0.5946 Y4.1476
N18375 X0.5941 Y4.1536
N18380 X0.5928 Y4.1594
N18385 X0.5909 Y4.1651
N18390 X0.5884 Y4.1706
N18395 X0.5853 Y4.1757
N18400 X0.5818 Y4.1806
N18405 X0.5778 Y4.1851
N18410 X0.5735 Y4.1892
N18415 X0.5688 Y4.1931
N18420 X0.5635 Y4.1967
N18425 X0.5577 Y4.2001
N18430 X0.5514 Y4.2031
N18435 X0.5448 Y4.2056
N18440 X0.5378 Y4.2076
N18445 X0.5304 Y4.2091
N18450 X0.5226 Y4.2101
N18455 X0.5146 Y4.2104
N18460 X0.5064 Y4.2101
N18465 X0.498 Y4.2091
N18470 X0.4896 Y4.2074
N18475 X0.4814 Y4.2051
N18480 X0.4738 Y4.2022
N18485 X0.4658 Y4.1985
N18490 X0.4586 Y4.1943
N18495 X0.4518 Y4.1897
N18500 X0.445 Y4.1841
N18505 X0.4391 Y4.1785
N18510 X0.4335 Y4.1723
N18515 X0.4283 Y4.1654
N18520 X0.4239 Y4.1586
N18525 X0.4199 Y4.1511
N18530 X0.4166 Y4.1433
N18535 X0.414 Y4.1357
N18540 X0.4119 Y4.1273
N18545 X0.4105 Y4.1191
N18550 X0.4109 Y4.1064
N18555 X0.4141 Y4.0941
N18560 X0.4201 Y4.0829
N18565 X0.4284 Y4.0734
N18570 X0.4387 Y4.066
N18575 X0.4504 Y4.0611
N18580 X0.4629 Y4.059
N18585 X0.4761 Y4.0584
N18590 X0.5102 Y4.0565
N18595 G3 X0.5291 Y4.0645 I0.0005 J0.025
N18600 G1 X0.5358 Y4.0717
N18605 X0.5733 Y4.112
N18610 X0.5874 Y4.1272
N18615 G3 X0.5926 Y4.1358 I-0.0183 J0.017
N18620 G1 X0.603 Y4.1683
N18625 X0.6045 Y4.1741
N18630 X0.6053 Y4.18
N18635 Y4.186
N18640 X0.6046 Y4.192
N18645 X0.6033 Y4.1978
N18650 X0.6015 Y4.2035
N18655 X0.5992 Y4.2092
N18660 X0.5962 Y4.2148
N18665 X0.5928 Y4.2204
N18670 X0.5885 Y4.2262
N18675 X0.5836 Y4.2319
N18680 X0.578 Y4.2373
N18685 X0.5717 Y4.2426
N18690 X0.5647 Y4.2475
N18695 X0.5569 Y4.2521
N18700 X0.5485 Y4.2563
N18705 X0.5395 Y4.2598
N18710 X0.53 Y4.2626
N18715 X0.5198 Y4.2648
N18720 X0.5092 Y4.2663
N18725 X0.4982 Y4.2668
N18730 X0.487 Y4.2665
N18735 X0.4756 Y4.2653
N18740 X0.4641 Y4.2631
N18745 X0.4527 Y4.2599
N18750 X0.4413 Y4.2558
N18755 X0.4369 Y4.2537
N18760 X0.432 Y4.2512
N18765 X0.4274 Y4.2483
N18770 X0.4231 Y4.2449
N18775 X0.3992 Y4.2243
N18780 X0.3872 Y4.2128
N18785 X0.3794 Y4.2041
N18790 X0.3728 Y4.1954
N18795 X0.3665 Y4.1856
N18800 X0.3617 Y4.1764
N18805 X0.3573 Y4.1664
N18810 X0.3539 Y4.1563
N18815 X0.3515 Y4.1467
N18820 X0.3497 Y4.1361
N18825 X0.3489 Y4.1262
N18830 X0.3488 Y4.1165
N18835 X0.3491 Y4.113
N18840 X0.3514 Y4.1006
N18845 X0.3563 Y4.089
N18850 X0.3636 Y4.0787
N18855 X0.373 Y4.0702
N18860 X0.3839 Y4.0639
N18865 X0.396 Y4.0601
N18870 X0.4085 Y4.059
N18875 G3 X0.4321 Y4.0824 Z-0.1926 I-0.0014 J0.025
N18880 G1 X0.4323 Y4.0854 Z-0.192
N18885 X0.4398 Y4.2032
N18890 G3 X0.4344 Y4.2205 I-0.0249 J0.0016
N18895 X0.3992 Y4.2243 Z-0.2 I-0.0195 J-0.0157
N18900 G1 X0.3309 Y4.1654
N18905 X0.3266 Y4.1612
N18910 X0.3225 Y4.1566
N18915 X0.3189 Y4.1517
N18920 X0.3157 Y4.1467
N18925 X0.3127 Y4.1408
N18930 X0.3101 Y4.1346
N18935 X0.3081 Y4.1286
N18940 X0.3065 Y4.1217
N18945 X0.3054 Y4.1146
N18950 X0.306 Y4.102
N18955 X0.3095 Y4.0898
N18960 X0.3159 Y4.0789
N18965 X0.3246 Y4.0698
N18970 X0.3353 Y4.063
N18975 X0.3473 Y4.059
N18980 X0.3599 Y4.0579
N18985 G3 X0.3831 Y4.0846 Z-0.192 I-0.0017 J0.0249
N18990 G1 X0.3827 Y4.0874
N18995 X0.3711 Y4.1504
N19000 G3 X0.366 Y4.1615 I-0.0246 J-0.0045
N19005 X0.3309 Y4.1654 Z-0.2 I-0.0195 J-0.0157
N19010 G1 X0.292 Y4.1318
N19015 X0.2876 Y4.1277
N19020 X0.2839 Y4.123
N19025 X0.2795 Y4.113
N19030 X0.2776 Y4.1024
N19035 X0.2784 Y4.0915
N19040 X0.2818 Y4.0812
N19045 X0.2876 Y4.0721
N19050 X0.2954 Y4.0646
N19055 X0.3049 Y4.0592
N19060 X0.3153 Y4.0563
N19065 X0.3262 Y4.0561
N19070 G3 X0.3476 Y4.0659 Z-0.1951 I-0.0054 J0.0401
N19075 X0.3571 Y4.0778 Z-0.192 I-0.0286 J0.0323
N19080 X0.329 Y4.1401 I-0.0381 J0.0203
N19085 X0.292 Y4.1318 Z-0.2 I-0.01 J-0.042
N19090 G1 X0.2688 Y4.1118
N19095 X0.2644 Y4.1077
N19100 X0.2608 Y4.1029
N19105 X0.2576 Y4.0943
N19110 X0.2568 Y4.0852
N19115 X0.2585 Y4.0761
N19120 X0.2625 Y4.0679
N19125 X0.2686 Y4.061
N19130 X0.2763 Y4.056
N19135 X0.285 Y4.0532
N19140 X0.2942 Y4.0529
N19145 G3 X0.3109 Y4.0602 I-0.0044 J0.0327
N19150 X0.2688 Y4.1118 I-0.0213 J0.0256
N19155 G1 X0.254 Y4.0991
N19160 X0.2486 Y4.0943
N19165 X0.2473 Y4.0931
N19170 X0.2455 Y4.091
N19175 X0.2434 Y4.0878
N19180 X0.2419 Y4.0845
N19185 X0.2412 Y4.0824
N19190 X0.2407 Y4.0803
N19195 X0.2403 Y4.076
N19200 X0.2406 Y4.0717
N19205 X0.241 Y4.0696
N19210 X0.2417 Y4.0675
N19215 X0.2432 Y4.064
N19220 X0.2455 Y4.0605
N19225 X0.2468 Y4.0589
N19230 X0.2504 Y4.0556
N19235 X0.254 Y4.0532
N19240 X0.2561 Y4.0522
N19245 X0.2583 Y4.0514
N19250 X0.2604 Y4.0508
N19255 X0.2625 Y4.0504
N19260 X0.263
N19265 X0.2659 Y4.0502
N19270 X0.2687 Y4.0504
N19275 X0.3309 Y4.0565
N19280 X0.3394 Y4.0571
N19285 X0.3565 Y4.0578
N19290 X0.3651 Y4.0581
N19295 X0.4249 Y4.0594
N19300 X0.442 Y4.0597
N19305 X0.4505 Y4.0596
N19310 X0.4629 Y4.059
N19315 X0.4656 Y4.0591
N19320 X0.4682 Y4.0595
N19325 X0.471 Y4.0606 Z-0.1998
N19330 X0.4737 Y4.0617 Z-0.1993
N19335 X0.4764 Y4.0627 Z-0.1984
N19340 X0.4789 Y4.0645 Z-0.197
N19345 X0.4814 Y4.0665 Z-0.1949
N19350 X0.4837 Y4.0683 Z-0.1924
N19355 X0.4856 Y4.0698 Z-0.1894
N19360 X0.4871 Y4.071 Z-0.1861
N19365 X0.4882 Y4.0719 Z-0.1826
N19370 X0.4889 Y4.0725 Z-0.1788
N19375 X0.4891 Y4.0727 Z-0.175
N19380 G0 Z0.3
N19385 X0.3265 Y4.1251
N19390 Z-0.165
N19395 G1 Z-0.19 F15.
N19400 G3 X0.2432 Y4.064 I-0.0128 J-0.0698
N19405 G1 X0.2455 Y4.0605
N19410 X0.2468 Y4.0589
N19415 X0.2491 Y4.0571
N19420 X0.2517 Y4.0556
N19425 X0.2545 Y4.0547 Z-0.1898
N19430 X0.2574 Y4.0538 Z-0.1893
N19435 X0.2601 Y4.053 Z-0.1884
N19440 X0.2632 Y4.0528 Z-0.187
N19445 X0.2657 Y4.0533 Z-0.1854
N19450 X0.268 Y4.0537 Z-0.1835
N19455 X0.27 Y4.054 Z-0.1813
N19460 X0.2718 Y4.0544 Z-0.1789
N19465 X0.2735 Y4.0551 Z-0.1757
N19470 X0.2747 Y4.0557 Z-0.1723
N19475 X0.2754 Y4.056 Z-0.1687
N19480 X0.2757 Y4.0562 Z-0.165
N19485 G0 Z0.3
N19490 X0.5822 Y4.1469
N19495 Z-0.1688
N19500 G1 Z-0.1938 F15.
N19505 X0.595 Y4.1571 Z-0.1972
N19510 G3 X0.603 Y4.1683 Z-0.2 I-0.0156 J0.0195
N19515 G1 X0.6159 Y4.2089
N19520 X0.6174 Y4.2147
N19525 X0.6183 Y4.2206
N19530 X0.6185 Y4.2266
N19535 X0.6181 Y4.2326
N19540 X0.6172 Y4.2387
N19545 X0.6157 Y4.245
N19550 X0.6136 Y4.2515
N19555 X0.6107 Y4.2585
N19560 X0.6071 Y4.2655
N19565 X0.6028 Y4.2725
N19570 X0.5975 Y4.2798
N19575 X0.5913 Y4.2869
N19580 X0.5843 Y4.2938
N19585 X0.5764 Y4.3004
N19590 X0.5673 Y4.3068
N19595 X0.5575 Y4.3127
N19600 X0.5566 Y4.3132
N19605 X0.546 Y4.3171
N19610 X0.5348 Y4.319
N19615 X0.5234 Y4.3186
N19620 X0.5124 Y4.3161
N19625 X0.502 Y4.3115
N19630 X0.4928 Y4.305
N19635 X0.4231 Y4.2449
N19640 G3 X0.4217 Y4.2096 Z-0.192 I0.017 J-0.0184
N19645 X0.4386 Y4.2016 I0.0184 J0.017
N19650 G1 X0.5838 Y4.1927
N19655 X0.5909 Y4.1923 Z-0.1934
N19660 G3 X0.6159 Y4.2089 Z-0.2 I0.0015 J0.025
N19665 G1 X0.6308 Y4.2554
N19670 X0.6323 Y4.2612
N19675 X0.6333 Y4.2671
N19680 X0.6337 Y4.2731
N19685 X0.6336 Y4.2793
N19690 X0.633 Y4.2861
N19695 X0.6317 Y4.2931
N19700 X0.6298 Y4.3008
N19705 X0.6273 Y4.3079
N19710 X0.624 Y4.3153
N19715 X0.6201 Y4.3225
N19720 X0.6159 Y4.3291
N19725 X0.6106 Y4.3359
N19730 X0.6015 Y4.3439
N19735 X0.5909 Y4.3497
N19740 X0.5793 Y4.3531
N19745 X0.5672 Y4.3538
N19750 X0.5553 Y4.3519
N19755 X0.5441 Y4.3474
N19760 X0.5341 Y4.3406
N19765 G3 X0.5327 Y4.3053 Z-0.192 I0.017 J-0.0184
N19770 G1 X0.533 Y4.3049
N19775 X0.5892 Y4.2465
N19780 G3 X0.5988 Y4.2403 I0.018 J0.0173
N19785 X0.6308 Y4.2554 Z-0.2 I0.0084 J0.0235
N19790 G1 X0.647 Y4.3064
N19795 X0.6485 Y4.3122
N19800 X0.6496 Y4.3181
N19805 X0.65 Y4.3241
N19810 X0.6499 Y4.3301
N19815 X0.6491 Y4.336
N19820 X0.6479 Y4.3419
N19825 X0.6461 Y4.3477
N19830 X0.6438 Y4.3534
N19835 X0.6376 Y4.3628
N19840 X0.6295 Y4.3706
N19845 X0.6197 Y4.3764
