%
(TOP PLATE - MOUNTING HOLES)
(MACHINE)
(  VENDOR BRIDGEPORT)
(  MODEL BOSS 6)
(  DESCRIPTION BRIDGEPORT CNC)
(T70  D=0.1875 CR=0. TAPER=118DEG - ZMIN=-0.0857 - CENTER DRILL)
(T80  D=0.25 CR=0. TAPER=118DEG - ZMIN=-0.3451 - DRILL)
N10 G90 G94 G17 G91.1
N15 G20
N20 G53 G0 Z0.
(DRILL2 2)
N25 T70 M6
N30 T80
N35 S3000 M3
N40 G55
N45 M7
N50 G0 X0.409 Y0.443
N55 G43 Z0.7 H70
N60 G0 Z0.3
N65 G98 G81 X0.409 Y0.443 Z-0.0857 R0.2 F5.
N70 X3.591
N75 X3.25 Y5.057
N80 X0.75
N85 G80
N90 G0 Z0.7
N95 M5
N100 G53 Z0.
(DRILL3 2)
N105 M9
N110 M1
N115 T80 M6
N120 T70
N125 S3000 M3
N130 G55
N135 M7
N140 G0 X0.75 Y5.057
N145 G43 Z0.8 H80
N150 G0 Z0.4
N155 Z0.05
N160 G1 Z-0.1 F19.
N165 G0 Z-0.095
N170 G1 Z-0.2 F19.
N175 G0 Z-0.195
N180 G1 Z-0.3 F19.
N185 G0 Z0.4
N190 Z-0.22
N195 G1 Z-0.3451 F19.
N200 G0 Z0.4
N205 X3.25
N210 Z0.05
N215 G1 Z-0.1 F19.
N220 G0 Z-0.095
N225 G1 Z-0.2 F19.
N230 G0 Z-0.195
N235 G1 Z-0.3 F19.
N240 G0 Z0.4
N245 Z-0.22
N250 G1 Z-0.3451 F19.
N255 G0 Z0.4
N260 X3.591 Y0.443
N265 Z0.05
N270 G1 Z-0.1 F19.
N275 G0 Z-0.095
N280 G1 Z-0.2 F19.
N285 G0 Z-0.195
N290 G1 Z-0.3 F19.
N295 G0 Z0.4
N300 Z-0.22
N305 G1 Z-0.3451 F19.
N310 G0 Z0.4
N315 X0.409
N320 Z0.05
N325 G1 Z-0.1 F19.
N330 G0 Z-0.095
N335 G1 Z-0.2 F19.
N340 G0 Z-0.195
N345 G1 Z-0.3 F19.
N350 G0 Z0.4
N355 Z-0.22
N360 G1 Z-0.3451 F19.
N365 G0 Z0.4
N370 Z0.8
N375 M9
N380 G53 Z0.
N385 M30
%
